assets/Atmospheric.cube
TITLE "ProPhoto Linear Atmospheric: Contrast+MidSat+Hue+Split"
LUT_3D_SIZE 5
0.000000 0.000000 0.020000
0.182242 0.005925 0.020616
0.412509 0.007554 0.011819
0.665030 0.007451 0.000000
0.931027 0.003838 0.000000
0.000000 0.231952 0.000000
0.242167 0.235432 0.000000
0.495940 0.236974 0.000000
0.749343 0.239337 0.000000
0.989881 0.245616 0.000000
0.000000 0.492141 0.000000
0.255582 0.491319 0.000000
0.507606 0.494408 0.000000
0.750173 0.500766 0.008413
0.989649 0.508370 0.014291
0.040070 0.739571 0.020421
0.288551 0.744516 0.024845
0.532842 0.750389 0.026526
0.775354 0.755966 0.026995
1.000000 0.760801 0.027053
0.062753 0.994815 0.036572
0.307822 0.997825 0.036517
0.556053 0.999620 0.043928
0.804154 1.000000 0.060765
1.000000 1.000000 0.079476
0.000000 0.005120 0.183483
0.178786 0.009573 0.221961
0.409585 0.011452 0.224751
0.662967 0.010399 0.219129
0.926366 0.006313 0.218925
0.000000 0.233188 0.239642
0.236875 0.236875 0.236875
0.488386 0.238973 0.232159
0.737653 0.242854 0.229334
0.974516 0.250908 0.231137
0.000000 0.491050 0.245574
0.254403 0.492093 0.247726
0.503432 0.496937 0.252757
0.744594 0.504264 0.257542
0.983599 0.512176 0.260580
0.041654 0.740615 0.272480
0.287317 0.746486 0.274419
0.529964 0.752668 0.275077
0.771149 0.758295 0.274989
1.000000 0.763067 0.274439
0.062421 0.995514 0.287560
0.306720 0.998209 0.287296
0.557646 1.000000 0.294012
0.802771 1.000000 0.305809
1.000000 1.000000 0.317334
0.000000 0.009834 0.356620
0.177895 0.013293 0.420584
0.409879 0.014970 0.435375
0.661030 0.013044 0.447038
0.922078 0.008903 0.459166
0.000000 0.234917 0.483156
0.231984 0.238644 0.489057
0.481248 0.241525 0.487981
0.726708 0.247062 0.483563
0.960800 0.256665 0.480590
0.000000 0.490788 0.504304
0.253829 0.493694 0.500247
0.500000 0.500000 0.500000
0.739819 0.508001 0.501668
0.978194 0.516068 0.503442
0.042809 0.742223 0.519799
0.286059 0.748723 0.520595
0.527201 0.755077 0.520800
0.767080 0.760688 0.520321
1.000000 0.765399 0.519505
0.062085 0.996326 0.535675
0.307569 0.998759 0.535129
0.559955 1.000000 0.538703
0.800448 1.000000 0.544632
1.000000 1.000000 0.549460
0.000000 0.013966 0.541743
0.178862 0.017267 0.616942
0.411487 0.018142 0.647639
0.659187 0.015503 0.677268
0.917529 0.011803 0.698993
0.000000 0.236947 0.725976
0.227521 0.240755 0.738343
0.474596 0.244682 0.737735
0.716678 0.251908 0.729733
0.948817 0.262750 0.722249
0.000000 0.491359 0.753793
0.253673 0.496014 0.744801
0.497140 0.503471 0.741513
0.735660 0.511903 0.741945
0.973273 0.520018 0.743507
0.043604 0.744257 0.763401
0.284789 0.751158 0.763901
0.524533 0.757580 0.763947
0.763125 0.763125 0.763125
0.999782 0.768241 0.761561
0.061771 0.997216 0.781047
0.310688 0.999866 0.778735
0.562353 1.000000 0.777606
0.797576 1.000000 0.777543
1.000000 1.000000 0.776685
0.000000 0.017671 0.736447
0.181472 0.020988 0.815557
0.412967 0.021007 0.863990
0.657643 0.017923 0.909177
0.912329 0.015206 0.937530
0.000000 0.239191 0.968252
0.223567 0.243263 0.983823
0.468534 0.248473 0.980701
0.707701 0.257302 0.968189
0.938554 0.269026 0.957361
0.003495 0.492732 0.994981
0.253763 0.498937 0.982935
0.494704 0.507242 0.978675
0.731965 0.515914 0.979236
0.968712 0.524005 0.981203
0.044114 0.746608 1.000000
0.283517 0.753738 1.000000
0.521945 0.760151 1.000000
0.759262 0.765589 1.000000
0.995968 0.771947 0.999429
0.062551 0.997878 1.000000
0.315330 1.000000 1.000000
0.564227 1.000000 1.000000
0.794789 1.000000 1.000000
1.000000 1.000000 1.000000
