assets/Atmospheric.cube
TITLE "ProPhoto Linear Atmospheric: Contrast+MidSat+Hue+Split"
LUT_3D_SIZE 33
0.000000 0.000000 0.020000
0.005275 0.001051 0.020444
0.028881 0.002060 0.020836
0.052937 0.002995 0.021139
0.077538 0.003829 0.021324
0.102751 0.004545 0.021370
0.128609 0.005133 0.021267
0.155116 0.005590 0.021013
0.182242 0.005925 0.020616
0.209918 0.006155 0.020096
0.238039 0.006308 0.019485
0.266551 0.006421 0.018724
0.295428 0.006544 0.017690
0.324418 0.006738 0.016476
0.353356 0.007040 0.015151
0.382699 0.007320 0.013597
0.412509 0.007554 0.011819
0.442766 0.007738 0.009844
0.473449 0.007869 0.007702
0.504536 0.007946 0.005424
0.536000 0.007966 0.003041
0.567814 0.007927 0.000588
0.599946 0.007829 0.000000
0.632364 0.007670 0.000000
0.665030 0.007451 0.000000
0.697902 0.007173 0.000000
0.730936 0.006838 0.000000
0.764084 0.006448 0.000000
0.797291 0.006007 0.000000
0.830502 0.005519 0.000000
0.863787 0.004991 0.000000
0.897304 0.004428 0.000000
0.931027 0.003838 0.000000
0.000000 0.026095 0.022197
0.009571 0.026917 0.022326
0.034505 0.027739 0.022316
0.059861 0.028499 0.022155
0.085731 0.029169 0.021847
0.112141 0.029738 0.021402
0.139062 0.030213 0.020845
0.166428 0.030610 0.020205
0.194297 0.030959 0.019339
0.222578 0.031299 0.018228
0.251044 0.031683 0.016975
0.279700 0.032104 0.015580
0.308810 0.032488 0.013943
0.338359 0.032830 0.012091
0.368329 0.033127 0.010053
0.398699 0.033376 0.007859
0.429448 0.033575 0.005540
0.460549 0.033720 0.003129
0.491976 0.033810 0.000660
0.523698 0.033844 0.000000
0.555682 0.033820 0.000000
0.587891 0.033739 0.000000
0.620285 0.033601 0.000000
0.652820 0.033408 0.000000
0.685447 0.033162 0.000000
0.718115 0.032866 0.000000
0.750777 0.032525 0.000000
0.783611 0.032142 0.000000
0.816679 0.031726 0.000000
0.849950 0.031282 0.000000
0.883394 0.030818 0.000000
0.916975 0.030343 0.000000
0.950654 0.029867 0.000000
0.000000 0.053257 0.023074
0.012090 0.054016 0.022707
0.038118 0.054721 0.022213
0.064574 0.055354 0.021619
0.091485 0.055916 0.020920
0.118970 0.056422 0.019951
0.146915 0.056900 0.018775
0.175136 0.057390 0.017488
0.203707 0.057873 0.016002
0.232687 0.058328 0.014283
0.262064 0.058752 0.012360
0.291824 0.059139 0.010262
0.321949 0.059484 0.008020
0.352418 0.059786 0.005664
0.383208 0.060040 0.003228
0.414293 0.060244 0.000747
0.445645 0.060396 0.000000
0.477232 0.060495 0.000000
0.509018 0.060541 0.000000
0.540964 0.060533 0.000000
0.573027 0.060472 0.000000
0.605162 0.060360 0.000000
0.637316 0.060200 0.000000
0.669499 0.059995 0.000000
0.701914 0.059750 0.000000
0.734560 0.059471 0.000000
0.767412 0.059163 0.000000
0.800439 0.058834 0.000000
0.833606 0.058493 0.000000
0.866879 0.058147 0.000000
0.900219 0.057807 0.000000
0.933584 0.057482 0.000000
0.966934 0.057182 0.000000
0.000000 0.081541 0.022420
0.013336 0.082188 0.021626
0.040701 0.082771 0.020566
0.068578 0.083306 0.019336
0.096832 0.083820 0.017993
0.125430 0.084330 0.016417
0.154375 0.084829 0.014619
0.183662 0.085308 0.012628
0.213283 0.085762 0.010473
0.243223 0.086185 0.008185
0.273466 0.086572 0.005796
0.303993 0.086920 0.003339
0.334780 0.087224 0.000850
0.365801 0.087482 0.000000
0.397025 0.087692 0.000000
0.428420 0.087853 0.000000
0.459948 0.087964 0.000000
0.491568 0.088025 0.000000
0.523236 0.088038 0.000000
0.554902 0.088004 0.000000
0.586677 0.087927 0.000000
0.618703 0.087811 0.000000
0.650961 0.087659 0.000000
0.683424 0.087478 0.000000
0.716065 0.087275 0.000000
0.748852 0.087056 0.000000
0.781753 0.086831 0.000000
0.814730 0.086607 0.000000
0.847746 0.086394 0.000000
0.880760 0.086202 0.000000
0.913732 0.086040 0.000000
0.946622 0.085919 0.000000
0.979388 0.085849 0.000000
0.000000 0.110469 0.019916
0.016191 0.110956 0.018490
0.044917 0.111462 0.016827
0.073914 0.111977 0.014953
0.103186 0.112489 0.012896
0.132733 0.112989 0.010687
0.162546 0.113471 0.008356
0.192615 0.113928 0.005937
0.222923 0.114354 0.003463
0.253452 0.114745 0.000971
0.284178 0.115096 0.000000
0.315073 0.115406 0.000000
0.346107 0.115672 0.000000
0.377246 0.115892 0.000000
0.408450 0.116066 0.000000
0.439678 0.116194 0.000000
0.470902 0.116278 0.000000
0.502322 0.116319 0.000000
0.533991 0.116321 0.000000
0.565891 0.116288 0.000000
0.597997 0.116224 0.000000
0.630286 0.116136 0.000000
0.662727 0.116030 0.000000
0.695290 0.115914 0.000000
0.727941 0.115795 0.000000
0.760644 0.115683 0.000000
0.793362 0.115586 0.000000
0.826055 0.115513 0.000000
0.858686 0.115475 0.000000
0.891215 0.115480 0.000000
0.923604 0.115538 0.000000
0.955817 0.115659 0.000000
0.987820 0.115849 0.000000
0.000000 0.139761 0.015283
0.020668 0.140284 0.013164
0.050201 0.140812 0.010904
0.079940 0.141336 0.008534
0.109881 0.141846 0.006089
0.140013 0.142337 0.003602
0.170322 0.142802 0.001110
0.200787 0.143236 0.000000
0.231385 0.143634 0.000000
0.262089 0.143994 0.000000
0.292866 0.144314 0.000000
0.323682 0.144591 0.000000
0.354495 0.144825 0.000000
0.385348 0.145016 0.000000
0.416445 0.145166 0.000000
0.447789 0.145277 0.000000
0.479362 0.145353 0.000000
0.511145 0.145397 0.000000
0.543114 0.145414 0.000000
0.575245 0.145410 0.000000
0.607507 0.145392 0.000000
0.639869 0.145367 0.000000
0.672298 0.145344 0.000000
0.704758 0.145330 0.000000
0.737213 0.145334 0.000000
0.769627 0.145365 0.000000
0.801962 0.145432 0.000000
0.834181 0.145545 0.000000
0.866251 0.145711 0.000000
0.898138 0.145938 0.000000
0.929810 0.146236 0.000000
0.961241 0.146609 0.000000
0.992406 0.147064 0.000000
0.000000 0.169772 0.008721
0.025283 0.170322 0.006253
0.055278 0.170865 0.003758
0.085402 0.171392 0.001271
0.115640 0.171896 0.000000
0.145971 0.172373 0.000000
0.176373 0.172818 0.000000
0.206817 0.173226 0.000000
0.237271 0.173596 0.000000
0.267698 0.173927 0.000000
0.298250 0.174217 0.000000
0.329057 0.174466 0.000000
0.360106 0.174677 0.000000
0.391386 0.174851 0.000000
0.422879 0.174992 0.000000
0.454565 0.175103 0.000000
0.486421 0.175191 0.000000
0.518419 0.175260 0.000000
0.550531 0.175317 0.000000
0.582725 0.175371 0.000000
0.614969 0.175427 0.000000
0.647229 0.175495 0.000000
0.679468 0.175583 0.000000
0.711652 0.175699 0.000000
0.743747 0.175852 0.000000
0.775717 0.176050 0.000000
0.807533 0.176301 0.000000
0.839162 0.176613 0.000000
0.870579 0.176991 0.000000
0.901759 0.177443 0.000000
0.932681 0.177973 0.000000
0.963330 0.178586 0.000000
0.993692 0.179284 0.000000
0.000000 0.200510 0.001453
0.028747 0.201074 0.000000
0.058841 0.201619 0.000000
0.088970 0.202138 0.000000
0.119107 0.202626 0.000000
0.149225 0.203080 0.000000
0.179322 0.203498 0.000000
0.209621 0.203876 0.000000
0.240168 0.204215 0.000000
0.270957 0.204515 0.000000
0.301977 0.204778 0.000000
0.333215 0.205005 0.000000
0.364654 0.205200 0.000000
0.396271 0.205367 0.000000
0.428044 0.205512 0.000000
0.459945 0.205640 0.000000
0.491946 0.205757 0.000000
0.524016 0.205872 0.000000
0.556122 0.205991 0.000000
0.588231 0.206122 0.000000
0.620310 0.206273 0.000000
0.652324 0.206453 0.000000
0.684241 0.206670 0.000000
0.716031 0.206931 0.000000
0.747663 0.207243 0.000000
0.779110 0.207613 0.000000
0.810349 0.208048 0.000000
0.841359 0.208552 0.000000
0.872123 0.209131 0.000000
0.902628 0.209786 0.000000
0.932864 0.210521 0.000000
0.962829 0.211337 0.000000
0.992519 0.212233 0.000000
0.000000 0.231952 0.000000
0.029745 0.232511 0.000000
0.059555 0.233039 0.000000
0.089394 0.233534 0.000000
0.119470 0.233991 0.000000
0.149791 0.234410 0.000000
0.180353 0.234789 0.000000
0.211148 0.235129 0.000000
0.242167 0.235432 0.000000
0.273395 0.235699 0.000000
0.304813 0.235935 0.000000
0.336400 0.236143 0.000000
0.368131 0.236329 0.000000
0.399981 0.236498 0.000000
0.431919 0.236657 0.000000
0.463916 0.236814 0.000000
0.495940 0.236974 0.000000
0.527958 0.237148 0.000000
0.559938 0.237341 0.000000
0.591848 0.237562 0.000000
0.623657 0.237818 0.000000
0.655337 0.238118 0.000000
0.686860 0.238467 0.000000
0.718202 0.238871 0.000000
0.749343 0.239337 0.000000
0.780263 0.239869 0.000000
0.810950 0.240470 0.000000
0.841394 0.241143 0.000000
0.871587 0.241890 0.000000
0.901529 0.242712 0.000000
0.931221 0.243608 0.000000
0.960668 0.244577 0.000000
0.989881 0.245616 0.000000
0.000000 0.264031 0.000000
0.027809 0.264558 0.000000
0.057937 0.265046 0.000000
0.088307 0.265494 0.000000
0.118914 0.265902 0.000000
0.149751 0.266269 0.000000
0.180806 0.266597 0.000000
0.212064 0.266888 0.000000
0.243505 0.267148 0.000000
0.275109 0.267378 0.000000
0.306850 0.267586 0.000000
0.338702 0.267777 0.000000
0.370634 0.267957 0.000000
0.402618 0.268134 0.000000
0.434622 0.268315 0.000000
0.466613 0.268507 0.000000
0.498562 0.268719 0.000000
0.530437 0.268957 0.000000
0.562210 0.269230 0.000000
0.593854 0.269544 0.000000
0.625343 0.269905 0.000000
0.656656 0.270320 0.000000
0.687775 0.270793 0.000000
0.718683 0.271328 0.000000
0.749370 0.271928 0.000000
0.779829 0.272596 0.000000
0.810054 0.273334 0.000000
0.840046 0.274140 0.000000
0.869809 0.275015 0.000000
0.899350 0.275958 0.000000
0.928679 0.276964 0.000000
0.957809 0.278032 0.000000
0.986757 0.279158 0.000000
0.000000 0.296627 0.000000
0.025289 0.297090 0.000000
0.055982 0.297509 0.000000
0.086903 0.297886 0.000000
0.118042 0.298222 0.000000
0.149380 0.298519 0.000000
0.180900 0.298782 0.000000
0.212577 0.299015 0.000000
0.244386 0.299223 0.000000
0.276300 0.299414 0.000000
0.308291 0.299592 0.000000
0.340326 0.299767 0.000000
0.372377 0.299945 0.000000
0.404411 0.300133 0.000000
0.436398 0.300340 0.000000
0.468309 0.300572 0.000000
0.500117 0.300838 0.000000
0.531797 0.301143 0.000000
0.563325 0.301494 0.000000
0.594681 0.301896 0.000000
0.625849 0.302353 0.000000
0.656816 0.302870 0.000000
0.687573 0.303449 0.000000
0.718113 0.304093 0.000000
0.748434 0.304802 0.000000
0.778539 0.305575 0.000000
0.808432 0.306413 0.000000
0.838121 0.307314 0.000000
0.867617 0.308274 0.000000
0.896934 0.309291 0.000000
0.926087 0.310360 0.000000
0.955093 0.311478 0.000000
0.983972 0.312639 0.000000
0.000000 0.329563 0.000000
0.022767 0.329930 0.000000
0.054046 0.330252 0.000000
0.085525 0.330534 0.000000
0.117183 0.330778 0.000000
0.148996 0.330990 0.000000
0.180939 0.331176 0.000000
0.212982 0.331343 0.000000
0.245097 0.331497 0.000000
0.277253 0.331645 0.000000
0.309419 0.331796 0.000000
0.341565 0.331957 0.000000
0.373660 0.332136 0.000000
0.405677 0.332340 0.000000
0.437589 0.332576 0.000000
0.469372 0.332851 0.000000
0.501006 0.333170 0.000000
0.532471 0.333540 0.000000
0.563753 0.333963 0.000000
0.594840 0.334443 0.000000
0.625725 0.334984 0.000000
0.656404 0.335587 0.000000
0.686875 0.336252 0.000000
0.717142 0.336979 0.000000
0.747211 0.337767 0.000000
0.777090 0.338615 0.000000
0.806790 0.339519 0.000000
0.836325 0.340476 0.000000
0.865711 0.341483 0.000000
0.894963 0.342535 0.000000
0.924101 0.343627 0.000000
0.953141 0.344755 0.000000
0.982103 0.345914 0.000000
0.000000 0.362626 0.000000
0.020692 0.362868 0.000000
0.052556 0.363070 0.000000
0.084574 0.363238 0.000000
0.116719 0.363377 0.000000
0.148961 0.363496 0.000000
0.181270 0.363601 0.000000
0.213615 0.363701 0.000000
0.245964 0.363802 0.000000
0.278288 0.363914 0.000000
0.310558 0.364043 0.000000
0.342745 0.364198 0.000000
0.374824 0.364385 0.000000
0.406772 0.364610 0.000000
0.438570 0.364880 0.000000
0.470201 0.365199 0.000000
0.501650 0.365572 0.000000
0.532909 0.366002 0.000000
0.563971 0.366491 0.000000
0.594833 0.367040 0.000000
0.625495 0.367650 0.000000
0.655961 0.368321 0.000000
0.686238 0.369051 0.000000
0.716335 0.369839 0.000000
0.746264 0.370681 0.000000
0.776037 0.371574 0.000000
0.805669 0.372516 0.000000
0.835178 0.373500 0.000000
0.864578 0.374523 0.000000
0.893889 0.375581 0.000000
0.923126 0.376668 0.000000
0.952306 0.377779 0.000000
0.981447 0.378911 0.000000
0.000000 0.395589 0.000000
0.019527 0.395688 0.000000
0.051944 0.395757 0.000000
0.084454 0.395805 0.000000
0.117024 0.395839 0.000000
0.149624 0.395867 0.000000
0.182221 0.395898 0.000000
0.214786 0.395940 0.000000
0.247289 0.396000 0.000000
0.279703 0.396087 0.000000
0.312004 0.396208 0.000000
0.344170 0.396368 0.000000
0.376181 0.396574 0.000000
0.408023 0.396830 0.000000
0.439683 0.397141 0.000000
0.471153 0.397509 0.000000
0.502427 0.397936 0.000000
0.533503 0.398424 0.000000
0.564384 0.398972 0.000000
0.595074 0.399581 0.000000
0.625579 0.400248 0.000000
0.655910 0.400973 0.000000
0.686077 0.401751 0.000000
0.716096 0.402580 0.000000
0.745978 0.403455 0.000000
0.775742 0.404373 0.000000
0.805401 0.405330 0.000000
0.834973 0.406320 0.000000
0.864473 0.407339 0.000000
0.893916 0.408383 0.000000
0.923319 0.409448 0.000260
0.952693 0.410527 0.001522
0.982053 0.411619 0.002717
0.000000 0.428248 0.000000
0.019674 0.428202 0.000000
0.052569 0.428143 0.000000
0.085484 0.428080 0.000000
0.118386 0.428022 0.000000
0.151246 0.427976 0.000000
0.184034 0.427952 0.000000
0.216723 0.427957 0.000000
0.249290 0.427998 0.000000
0.281714 0.428081 0.000000
0.313977 0.428212 0.000000
0.346063 0.428396 0.000000
0.377964 0.428636 0.000000
0.409670 0.428935 0.000000
0.441179 0.429295 0.000000
0.472490 0.429717 0.000000
0.503605 0.430201 0.000000
0.534529 0.430745 0.000000
0.565270 0.431349 0.000000
0.595839 0.432010 0.000000
0.626246 0.432726 0.000000
0.656506 0.433491 0.000000
0.686633 0.434304 0.000000
0.716641 0.435160 0.000000
0.746545 0.436054 0.000000
0.776362 0.436982 0.000000
0.806106 0.437940 0.000559
0.835792 0.438922 0.001863
0.865433 0.439926 0.003102
0.895042 0.440946 0.004271
0.924631 0.441978 0.005369
0.954210 0.443020 0.006395
0.983788 0.444067 0.007348
0.000000 0.460453 0.000000
0.021385 0.460282 0.000000
0.054641 0.460119 0.000000
0.087839 0.459972 0.000000
0.120952 0.459851 0.000000
0.153953 0.459763 0.000000
0.186819 0.459715 0.000000
0.219529 0.459713 0.000000
0.252067 0.459762 0.000000
0.284420 0.459868 0.000000
0.316578 0.460034 0.000000
0.348535 0.460261 0.000000
0.380289 0.460553 0.000000
0.411840 0.460908 0.000000
0.443192 0.461327 0.000000
0.474351 0.461809 0.000000
0.505326 0.462352 0.000000
0.536126 0.462953 0.000000
0.566764 0.463609 0.000000
0.597254 0.464316 0.000000
0.627609 0.465071 0.000000
0.657844 0.465870 0.000000
0.687975 0.466707 0.000839
0.718015 0.467580 0.002183
0.747980 0.468482 0.003464
0.777883 0.469410 0.004677
0.807736 0.470360 0.005821
0.837553 0.471327 0.006893
0.867343 0.472308 0.007893
0.897116 0.473299 0.008820
0.926880 0.474297 0.009676
0.956643 0.475298 0.010463
0.986411 0.476301 0.011182
0.000000 0.492141 0.000000
0.024713 0.491884 0.000000
0.058179 0.491657 0.000000
0.091514 0.491469 0.000000
0.124697 0.491326 0.000000
0.157709 0.491236 0.000000
0.190535 0.491202 0.000000
0.223162 0.491228 0.000000
0.255582 0.491319 0.000000
0.287792 0.491476 0.000000
0.319789 0.491701 0.000000
0.351577 0.491992 0.000000
0.383158 0.492350 0.000000
0.414542 0.492773 0.000000
0.445737 0.493260 0.000000
0.476754 0.493806 0.000000
0.507606 0.494408 0.000000
0.538306 0.495063 0.000000
0.568869 0.495767 0.001100
0.599310 0.496516 0.002482
0.629643 0.497304 0.003804
0.659882 0.498127 0.005061
0.690041 0.498982 0.006250
0.720134 0.499863 0.007368
0.750173 0.500766 0.008413
0.780169 0.501688 0.009387
0.810132 0.502624 0.010288
0.840072 0.503571 0.011119
0.869995 0.504526 0.011880
0.899910 0.505485 0.012575
0.929821 0.506448 0.013206
0.959733 0.507410 0.013777
0.989649 0.508370 0.014291
0.000000 0.523339 0.000000
0.029499 0.523048 0.000000
0.063006 0.522811 0.000000
0.096322 0.522631 0.000000
0.129433 0.522515 0.000000
0.162330 0.522466 0.000000
0.195006 0.522485 0.000000
0.227458 0.522576 0.000000
0.259687 0.522738 0.000000
0.291697 0.522972 0.000000
0.323492 0.523275 0.000000
0.355082 0.523646 0.000000
0.386478 0.524082 0.000000
0.417690 0.524580 0.000000
0.448733 0.525136 0.001346
0.479621 0.525747 0.002763
0.510367 0.526407 0.004124
0.540987 0.527113 0.005423
0.571496 0.527859 0.006655
0.601907 0.528641 0.007818
0.632234 0.529455 0.008910
0.662490 0.530295 0.009929
0.692687 0.531159 0.010876
0.722836 0.532041 0.011752
0.752946 0.532939 0.012557
0.783026 0.533848 0.013294
0.813084 0.534766 0.013965
0.843126 0.535690 0.014574
0.873156 0.536616 0.015123
0.903181 0.537543 0.015617
0.933201 0.538470 0.016058
0.963221 0.539393 0.016452
0.993241 0.540311 0.016800
0.001794 0.554155 0.000000
0.035405 0.553891 0.000000
0.068789 0.553698 0.000000
0.101941 0.553577 0.000000
0.134855 0.553533 0.000000
0.167531 0.553564 0.000000
0.199970 0.553672 0.000000
0.232179 0.553854 0.000000
0.264164 0.554111 0.000000
0.295937 0.554437 0.000080
0.327507 0.554832 0.001577
0.358890 0.555290 0.003027
0.390097 0.555808 0.004425
0.421145 0.556382 0.005764
0.452048 0.557006 0.007039
0.482821 0.557676 0.008246
0.513478 0.558388 0.009383
0.544034 0.559136 0.010448
0.574502 0.559915 0.011441
0.604895 0.560722 0.012362
0.635225 0.561553 0.013211
0.665501 0.562402 0.013991
0.695734 0.563267 0.014703
0.725932 0.564143 0.015351
0.756101 0.565029 0.015938
0.786249 0.565921 0.016467
0.816379 0.566816 0.016941
0.846497 0.567712 0.017364
0.876605 0.568607 0.017740
0.906705 0.569500 0.018074
0.936800 0.570388 0.018367
0.966889 0.571272 0.018625
0.996974 0.572148 0.018850
0.008604 0.584750 0.000000
0.041985 0.584568 0.000000
0.075111 0.584468 0.000000
0.107983 0.584450 0.000000
0.140605 0.584512 0.000000
0.172985 0.584653 0.000275
0.205132 0.584872 0.001795
0.237058 0.585163 0.003276
0.268776 0.585525 0.004708
0.300299 0.585952 0.006085
0.331643 0.586440 0.007400
0.362823 0.586985 0.008651
0.393855 0.587581 0.009833
0.424753 0.588223 0.010943
0.455532 0.588907 0.011982
0.486208 0.589627 0.012948
0.516792 0.590379 0.013843
0.547298 0.591158 0.014666
0.577736 0.591960 0.015421
0.608118 0.592781 0.016110
0.638452 0.593618 0.016735
0.668747 0.594466 0.017299
0.699009 0.595323 0.017807
0.729244 0.596186 0.018262
0.759457 0.597053 0.018668
0.789652 0.597920 0.019028
0.819833 0.598787 0.019346
0.850001 0.599652 0.019626
0.880158 0.600512 0.019871
0.910305 0.601368 0.020085
0.940441 0.602216 0.020270
0.970568 0.603058 0.020431
1.000000 0.603891 0.020569
0.015738 0.615304 0.000000
0.048773 0.615246 0.000463
0.081546 0.615274 0.002004
0.114065 0.615384 0.003511
0.146342 0.615575 0.004975
0.178390 0.615841 0.006387
0.210224 0.616178 0.007742
0.241859 0.616583 0.009034
0.273311 0.617049 0.010260
0.304596 0.617573 0.011415
0.335729 0.618147 0.012500
0.366727 0.618768 0.013512
0.397604 0.619430 0.014451
0.428375 0.620128 0.015319
0.459053 0.620857 0.016117
0.489650 0.621613 0.016847
0.520177 0.622392 0.017512
0.550644 0.623189 0.018115
0.581062 0.624001 0.018658
0.611436 0.624824 0.019146
0.641774 0.625655 0.019582
0.672082 0.626492 0.019970
0.702364 0.627332 0.020314
0.732625 0.628173 0.020617
0.762866 0.629014 0.020884
0.793091 0.629851 0.021117
0.823301 0.630684 0.021320
0.853497 0.631512 0.021496
0.883679 0.632333 0.021647
0.913846 0.633147 0.021778
0.944000 0.633952 0.021889
0.974138 0.634749 0.021984
1.000000 0.635535 0.022064
0.022734 0.645976 0.005228
0.055358 0.646066 0.006673
0.087733 0.646238 0.008065
0.119872 0.646488 0.009397
0.151792 0.646810 0.010665
0.183510 0.647200 0.011865
0.215043 0.647652 0.012994
0.246406 0.648161 0.014052
0.277617 0.648720 0.015037
0.308691 0.649326 0.015950
0.339643 0.649971 0.016792
0.370489 0.650652 0.017565
0.401240 0.651362 0.018270
0.431909 0.652099 0.018911
0.462508 0.652857 0.019492
0.493045 0.653633 0.020014
0.523530 0.654423 0.020482
0.553970 0.655223 0.020900
0.584372 0.656030 0.021271
0.614741 0.656843 0.021599
0.645081 0.657658 0.021889
0.675397 0.658473 0.022142
0.705691 0.659287 0.022363
0.735965 0.660098 0.022556
0.766221 0.660904 0.022722
0.796460 0.661704 0.022865
0.826681 0.662498 0.022988
0.856885 0.663283 0.023092
0.887072 0.664060 0.023181
0.917241 0.664828 0.023256
0.947391 0.665585 0.023319
0.977520 0.666332 0.023371
1.000000 0.667069 0.023414
0.029241 0.676880 0.011049
0.061441 0.677123 0.012292
0.093419 0.677438 0.013466
0.125193 0.677820 0.014569
0.156780 0.678264 0.015600
0.188199 0.678764 0.016558
0.219465 0.679314 0.017445
0.250595 0.679908 0.018261
0.281604 0.680541 0.019008
0.312506 0.681208 0.019689
0.343314 0.681903 0.020307
0.374041 0.682623 0.020866
0.404696 0.683363 0.021367
0.435291 0.684120 0.021816
0.465831 0.684889 0.022216
0.496327 0.685667 0.022571
0.526782 0.686452 0.022884
0.557203 0.687241 0.023159
0.587594 0.688031 0.023400
0.617958 0.688821 0.023610
0.648298 0.689609 0.023792
0.678616 0.690392 0.023949
0.708913 0.691171 0.024084
0.739190 0.691943 0.024199
0.769448 0.692708 0.024298
0.799686 0.693464 0.024381
0.829904 0.694212 0.024450
0.860102 0.694949 0.024509
0.890278 0.695676 0.024557
0.920432 0.696393 0.024597
0.950562 0.697098 0.024629
0.980666 0.697791 0.024655
1.000000 0.698473 0.024675
0.035045 0.708077 0.016139
0.066851 0.708459 0.017143
0.098472 0.708900 0.018075
0.129925 0.709396 0.018935
0.161228 0.709940 0.019725
0.192397 0.710526 0.020447
0.223446 0.711149 0.021105
0.254391 0.711805 0.021700
0.285243 0.712487 0.022237
0.316015 0.713192 0.022718
0.346717 0.713915 0.023149
0.377358 0.714653 0.023531
0.407946 0.715402 0.023870
0.438488 0.716159 0.024168
0.468990 0.716921 0.024430
0.499457 0.717686 0.024659
0.529892 0.718452 0.024857
0.560300 0.719216 0.025029
0.590681 0.719976 0.025178
0.621040 0.720733 0.025304
0.651375 0.721483 0.025413
0.681689 0.722226 0.025505
0.711981 0.722961 0.025582
0.742252 0.723687 0.025647
0.772501 0.724403 0.025701
0.802727 0.725110 0.025745
0.832930 0.725805 0.025781
0.863108 0.726489 0.025810
0.893260 0.727161 0.025834
0.923385 0.727821 0.025851
0.953482 0.728468 0.025865
0.983548 0.729103 0.025875
1.000000 0.729725 0.025881
0.040070 0.739571 0.020421
0.071541 0.740066 0.021185
0.102866 0.740607 0.021883
0.134060 0.741188 0.022517
0.165138 0.741803 0.023090
0.196115 0.742449 0.023606
0.227002 0.743119 0.024067
0.257810 0.743809 0.024479
0.288551 0.744516 0.024845
0.319232 0.745235 0.025168
0.349861 0.745964 0.025452
0.380444 0.746700 0.025700
0.410988 0.747439 0.025917
0.441496 0.748179 0.026105
0.471973 0.748919 0.026268
0.502420 0.749656 0.026407
0.532842 0.750389 0.026526
0.563238 0.751116 0.026628
0.593610 0.751837 0.026714
0.623960 0.752549 0.026786
0.654286 0.753253 0.026846
0.684589 0.753947 0.026895
0.714868 0.754631 0.026936
0.745124 0.755304 0.026969
0.775354 0.755966 0.026995
0.805557 0.756616 0.027015
0.835733 0.757253 0.027031
0.865881 0.757878 0.027042
0.895997 0.758489 0.027050
0.926082 0.759088 0.027054
0.956134 0.759673 0.027056
0.986150 0.760244 0.027056
1.000000 0.760801 0.027053
0.044346 0.771323 0.023926
0.075556 0.771900 0.024477
0.106654 0.772508 0.024972
0.137655 0.773143 0.025414
0.168570 0.773801 0.025808
0.199409 0.774477 0.026157
0.230183 0.775167 0.026465
0.260900 0.775867 0.026735
0.291566 0.776575 0.026971
0.322188 0.777288 0.027176
0.352770 0.778003 0.027354
0.383318 0.778717 0.027507
0.413834 0.779430 0.027638
0.444320 0.780139 0.027750
0.474780 0.780842 0.027845
0.505214 0.781540 0.027925
0.535623 0.782229 0.027991
0.566008 0.782909 0.028047
0.596368 0.783581 0.028092
0.626704 0.784241 0.028129
0.657015 0.784891 0.028159
0.687301 0.785529 0.028182
0.717559 0.786155 0.028200
0.747790 0.786769 0.028213
0.777991 0.787369 0.028222
0.808162 0.787957 0.028228
0.838302 0.788531 0.028231
0.868408 0.789091 0.028231
0.898478 0.789637 0.028229
0.928513 0.790168 0.028225
0.958509 0.790686 0.028220
0.988465 0.791188 0.028213
1.000000 0.791675 0.028268
0.047975 0.803266 0.026759
0.078995 0.803891 0.027135
0.109934 0.804536 0.027468
0.140801 0.805196 0.027761
0.171606 0.805868 0.028018
0.202355 0.806548 0.028241
0.233057 0.807233 0.028436
0.263716 0.807922 0.028603
0.294337 0.808611 0.028747
0.324923 0.809298 0.028871
0.355478 0.809982 0.028975
0.386004 0.810661 0.029064
0.416502 0.811334 0.029138
0.446974 0.811999 0.029200
0.477420 0.812655 0.029251
0.507841 0.813302 0.029292
0.538237 0.813938 0.029325
0.568607 0.814564 0.029352
0.598951 0.815177 0.029372
0.629268 0.815779 0.029388
0.659557 0.816367 0.029398
0.689816 0.816943 0.029405
0.720045 0.817505 0.029409
0.750242 0.818053 0.029410
0.780406 0.818587 0.029409
0.810535 0.819107 0.029405
0.840628 0.819612 0.029400
0.870683 0.820102 0.029393
