assets/Atmospheric.cube
TITLE "ProPhoto Linear Atmospheric: Contrast+MidSat+Hue+Split"
LUT_3D_SIZE 9
0.000000 0.000000 0.020000
0.077538 0.003829 0.021324
0.182242 0.005925 0.020616
0.295428 0.006544 0.017690
0.412509 0.007554 0.011819
0.536000 0.007966 0.003041
0.665030 0.007451 0.000000
0.797291 0.006007 0.000000
0.931027 0.003838 0.000000
0.000000 0.110469 0.019916
0.103186 0.112489 0.012896
0.222923 0.114354 0.003463
0.346107 0.115672 0.000000
0.470902 0.116278 0.000000
0.597997 0.116224 0.000000
0.727941 0.115795 0.000000
0.858686 0.115475 0.000000
0.987820 0.115849 0.000000
0.000000 0.231952 0.000000
0.119470 0.233991 0.000000
0.242167 0.235432 0.000000
0.368131 0.236329 0.000000
0.495940 0.236974 0.000000
0.623657 0.237818 0.000000
0.749343 0.239337 0.000000
0.871587 0.241890 0.000000
0.989881 0.245616 0.000000
0.000000 0.362626 0.000000
0.116719 0.363377 0.000000
0.245964 0.363802 0.000000
0.374824 0.364385 0.000000
0.501650 0.365572 0.000000
0.625495 0.367650 0.000000
0.746264 0.370681 0.000000
0.864578 0.374523 0.000000
0.981447 0.378911 0.000000
0.000000 0.492141 0.000000
0.124697 0.491326 0.000000
0.255582 0.491319 0.000000
0.383158 0.492350 0.000000
0.507606 0.494408 0.000000
0.629643 0.497304 0.003804
0.750173 0.500766 0.008413
0.869995 0.504526 0.011880
0.989649 0.508370 0.014291
0.015738 0.615304 0.000000
0.146342 0.615575 0.004975
0.273311 0.617049 0.010260
0.397604 0.619430 0.014451
0.520177 0.622392 0.017512
0.641774 0.625655 0.019582
0.762866 0.629014 0.020884
0.883679 0.632333 0.021647
1.000000 0.635535 0.022064
0.040070 0.739571 0.020421
0.165138 0.741803 0.023090
0.288551 0.744516 0.024845
0.410988 0.747439 0.025917
0.532842 0.750389 0.026526
0.654286 0.753253 0.026846
0.775354 0.755966 0.026995
0.895997 0.758489 0.027050
1.000000 0.760801 0.027053
0.053811 0.867412 0.030957
0.176835 0.869947 0.031431
0.299324 0.872413 0.031665
0.421372 0.874726 0.031761
0.542973 0.876839 0.031780
0.664064 0.878723 0.031758
0.784572 0.880257 0.032671
0.905403 0.882150 0.036932
1.000000 0.885096 0.043890
0.062753 0.994815 0.036572
0.185539 0.996444 0.036557
0.307822 0.997825 0.036517
0.430767 0.998504 0.038603
0.556053 0.999620 0.043928
0.681401 1.000000 0.051626
0.804154 1.000000 0.060765
0.922311 1.000000 0.070375
1.000000 1.000000 0.079476
0.000000 0.002588 0.100848
0.075183 0.006181 0.115627
0.180091 0.007795 0.121625
0.292790 0.008536 0.122851
0.410495 0.009553 0.118908
0.534786 0.009732 0.112603
0.663868 0.008970 0.106086
0.795187 0.007324 0.101793
0.928599 0.005074 0.098755
0.000000 0.111066 0.131161
0.103062 0.113516 0.125130
0.222282 0.115517 0.117870
0.344553 0.116826 0.111447
0.468177 0.117376 0.107791
0.594999 0.117308 0.104257
0.724296 0.116984 0.100391
0.853926 0.116935 0.096799
0.981533 0.117750 0.094149
0.000000 0.232491 0.117391
0.117136 0.234632 0.113835
0.239470 0.236112 0.109849
0.364990 0.237083 0.105773
0.492113 0.237908 0.102241
0.618867 0.239065 0.099896
0.743416 0.241007 0.099214
0.864555 0.244031 0.100366
0.982001 0.248195 0.103164
0.000000 0.362645 0.111332
0.114913 0.363475 0.107931
0.243719 0.364100 0.105941
0.371905 0.365010 0.105738
0.497939 0.366612 0.107360
0.621047 0.369124 0.110502
0.741288 0.372540 0.114613
0.859365 0.376670 0.119059
0.976267 0.381233 0.123278
0.000000 0.491493 0.112560
0.124892 0.491105 0.114605
0.254905 0.491597 0.118014
0.381640 0.493120 0.122185
0.505414 0.495598 0.126491
0.626998 0.498809 0.130428
0.747270 0.502480 0.133687
0.866961 0.506359 0.136166
0.986532 0.510259 0.137913
0.017699 0.614982 0.129814
0.147084 0.615834 0.133917
0.273070 0.617775 0.137533
0.396636 0.620492 0.140430
0.518694 0.623675 0.142563
0.639919 0.627072 0.144015
0.760715 0.630502 0.144932
0.881257 0.633855 0.145462
1.000000 0.637068 0.145731
0.040920 0.740013 0.147119
0.165139 0.742555 0.148919
0.287937 0.745462 0.150097
0.409912 0.748499 0.150802
0.531387 0.751510 0.151175
0.652492 0.754402 0.151327
0.773232 0.757121 0.151335
0.893547 0.759636 0.151245
1.000000 0.761930 0.151084
0.053846 0.868032 0.156677
0.176407 0.870649 0.156906
0.298502 0.873155 0.156949
0.420188 0.875483 0.156870
0.541439 0.877593 0.156707
0.662179 0.879460 0.156483
0.782547 0.880959 0.157934
0.903852 0.883335 0.162120
1.000000 0.886539 0.168356
0.062588 0.995149 0.162435
0.185002 0.996779 0.162200
0.307124 0.998060 0.162177
0.430866 0.998780 0.164645
0.556720 1.000000 0.169605
0.681775 1.000000 0.176343
0.803548 1.000000 0.184073
0.920196 1.000000 0.191965
1.000000 1.000000 0.199166
0.000000 0.005120 0.183483
0.074347 0.008312 0.208525
0.178786 0.009573 0.221961
0.290975 0.010624 0.226072
0.409585 0.011452 0.224751
0.534265 0.011396 0.221667
0.662967 0.010399 0.219129
0.793297 0.008586 0.219119
0.926366 0.006313 0.218925
0.000000 0.112017 0.239507
0.103222 0.114709 0.235716
0.221759 0.116754 0.231542
0.342847 0.118010 0.229091
0.465681 0.118497 0.228907
0.592138 0.118439 0.227904
0.720685 0.118264 0.226170
0.849123 0.118537 0.224148
0.975189 0.119831 0.222394
0.000000 0.233188 0.239642
0.114857 0.235372 0.238665
0.236875 0.236875 0.236875
0.361957 0.237936 0.234547
0.488386 0.238973 0.232159
0.614188 0.240474 0.230263
0.737653 0.242854 0.229334
0.857787 0.246338 0.229632
0.974516 0.250908 0.231137
0.000000 0.362769 0.242958
0.113337 0.363699 0.240252
0.241708 0.364553 0.238257
0.369229 0.365814 0.237385
0.494502 0.367835 0.237800
0.616924 0.370763 0.239389
0.736697 0.374528 0.241820
0.854580 0.378904 0.244657
0.971529 0.383605 0.247487
0.000000 0.491050 0.245574
0.125278 0.491108 0.246090
0.254403 0.492093 0.247726
0.380308 0.494080 0.250096
0.503432 0.496937 0.252757
0.624579 0.500422 0.255324
0.744594 0.504264 0.257542
0.864137 0.508235 0.259295
0.983599 0.512176 0.260580
0.019601 0.614922 0.258391
0.147795 0.616310 0.260839
0.272838 0.618665 0.263123
0.395714 0.621672 0.265031
0.517281 0.625040 0.266486
0.638144 0.628542 0.267508
0.758642 0.632027 0.268167
0.878909 0.635402 0.268545
0.998940 0.638618 0.268714
0.041654 0.740615 0.272480
0.165088 0.743418 0.273646
0.287317 0.746486 0.274419
0.408854 0.749613 0.274870
0.529964 0.752668 0.275077
0.650734 0.755577 0.275102
0.771149 0.758295 0.274989
0.891133 0.760797 0.274763
1.000000 0.763067 0.274439
0.053849 0.868719 0.281572
0.175974 0.871398 0.281616
0.297690 0.873932 0.281503
0.419022 0.876265 0.281268
0.539926 0.878364 0.280930
0.660366 0.880177 0.280692
0.780999 0.881866 0.282404
0.902559 0.884651 0.286168
1.000000 0.888026 0.291443
0.062421 0.995514 0.287560
0.184472 0.997138 0.287111
0.306720 0.998209 0.287296
0.431499 0.999199 0.289724
0.557646 1.000000 0.294012
0.682175 1.000000 0.299590
0.802771 1.000000 0.305809
0.917947 1.000000 0.311968
1.000000 1.000000 0.317334
0.000000 0.007546 0.268596
0.074056 0.010268 0.302405
0.178143 0.011364 0.321750
0.290274 0.012630 0.328141
0.409464 0.013256 0.330059
0.534172 0.012965 0.330765
0.662087 0.011753 0.332683
0.791689 0.009814 0.336522
0.924221 0.007581 0.339065
0.000000 0.113211 0.346169
0.103513 0.116017 0.345466
0.221187 0.118039 0.345060
0.340847 0.119214 0.347073
0.463346 0.119643 0.349841
0.589357 0.119627 0.351239
0.717070 0.119649 0.351356
0.844263 0.120293 0.350526
0.968800 0.122098 0.349262
0.000000 0.234006 0.361536
0.112634 0.236195 0.363041
0.234379 0.237719 0.363287
0.359029 0.238893 0.362403
0.484762 0.240177 0.360775
0.609632 0.242048 0.358945
0.732076 0.244874 0.357460
0.851308 0.248802 0.356723
0.967444 0.253737 0.356908
0.000000 0.362995 0.373327
0.112000 0.364051 0.370938
0.239935 0.365167 0.368589
0.366797 0.366797 0.366797
0.491335 0.369234 0.365898
0.613121 0.372555 0.365982
0.732477 0.376631 0.366908
0.850198 0.381211 0.368398
0.967197 0.386013 0.370133
0.000000 0.490814 0.376137
0.125830 0.491331 0.375096
0.254052 0.492796 0.375078
0.379140 0.495214 0.375879
0.501634 0.498410 0.377190
0.622360 0.502127 0.378696
0.742119 0.506108 0.380151
0.861499 0.510148 0.381404
0.980827 0.514113 0.382395
0.021425 0.615106 0.384850
0.148460 0.616983 0.385966
0.272605 0.619702 0.387231
0.394829 0.622956 0.388421
0.515929 0.626474 0.389410
0.636439 0.630059 0.390154
0.756640 0.633582 0.390655
0.876626 0.636971 0.390942
0.996372 0.640183 0.391042
0.042281 0.741357 0.396660
0.164992 0.744380 0.397391
0.286690 0.747576 0.397894
0.407814 0.750772 0.398180
0.528569 0.753859 0.398274
0.649010 0.756775 0.398200
0.769099 0.759484 0.397978
0.888753 0.761968 0.397619
1.000000 0.764219 0.397258
0.053825 0.869465 0.405695
0.175538 0.872189 0.405601
0.296888 0.874739 0.405356
0.417873 0.877069 0.404974
0.538433 0.879152 0.404464
0.658660 0.880865 0.404346
0.779865 0.882955 0.405919
0.901464 0.886069 0.408972
1.000000 0.889529 0.413100
0.062253 0.995908 0.411968
0.183958 0.997514 0.411313
0.306814 0.998404 0.411671
0.432577 0.999740 0.413699
0.558751 1.000000 0.417065
0.682526 1.000000 0.421334
0.801758 1.000000 0.425985
0.915765 1.000000 0.430436
1.000000 1.000000 0.434066
0.000000 0.009834 0.356620
0.073923 0.012098 0.397920
0.177895 0.013293 0.420584
0.290388 0.014555 0.429760
0.409879 0.014970 0.435375
0.534279 0.014448 0.440313
0.661030 0.013044 0.447038
0.790256 0.011028 0.454094
0.922078 0.008903 0.459166
0.000000 0.114572 0.452000
0.103797 0.117400 0.454997
0.220416 0.119351 0.458873
0.338863 0.120433 0.465192
0.461119 0.120820 0.470678
0.586615 0.120885 0.474242
0.713426 0.121155 0.475859
0.839345 0.122215 0.475814
0.962391 0.124555 0.474646
0.000000 0.234917 0.483156
0.110474 0.237088 0.487037
0.231984 0.238644 0.489057
0.356207 0.239962 0.489249
0.481248 0.241525 0.487981
0.605215 0.243791 0.485858
0.726708 0.247062 0.483563
0.845142 0.251408 0.481685
0.960800 0.256665 0.480590
0.000000 0.363325 0.502352
0.110911 0.364539 0.499899
0.238399 0.365945 0.496883
0.364605 0.367957 0.493986
0.488436 0.370801 0.491740
0.609627 0.374484 0.490427
0.728609 0.378832 0.490066
0.846194 0.383577 0.490482
0.963238 0.388448 0.491405
0.000000 0.490788 0.504304
0.126520 0.491767 0.501747
0.253829 0.493694 0.500247
0.378113 0.496507 0.499742
0.500000 0.500000 0.500000
0.620319 0.503911 0.500731
0.739819 0.508001 0.501668
0.859022 0.512091 0.502612
0.978194 0.516068 0.503442
0.023153 0.615515 0.509411
0.149071 0.617832 0.509507
0.272364 0.620868 0.510039
0.393973 0.624327 0.510745
0.514629 0.627966 0.511445
0.634795 0.631614 0.512030
0.754699 0.635164 0.512451
0.874400 0.638557 0.512689
0.993855 0.641760 0.512743
0.042809 0.742223 0.519799
0.164854 0.745425 0.520253
0.286059 0.748723 0.520595
0.406789 0.751970 0.520782
0.527201 0.755077 0.520800
0.647316 0.757992 0.520646
0.767080 0.760688 0.520321
0.886403 0.763147 0.519828
1.000000 0.765399 0.519505
0.053779 0.870261 0.529093
0.175101 0.873016 0.528892
0.296096 0.875572 0.528530
0.416739 0.877891 0.528007
0.536961 0.879952 0.527326
0.657259 0.881634 0.527248
0.779080 0.884198 0.528343
0.900504 0.887558 0.530452
1.000000 0.891015 0.533296
0.062085 0.996326 0.535675
0.183712 0.997819 0.534921
0.307569 0.998759 0.535129
0.434015 1.000000 0.536455
0.559955 1.000000 0.538703
0.682759 1.000000 0.541563
0.800448 1.000000 0.544632
0.913641 1.000000 0.547438
1.000000 1.000000 0.549460
0.000000 0.011971 0.447714
0.073828 0.013866 0.494867
0.178096 0.015311 0.518643
0.291083 0.016401 0.531448
0.410616 0.016597 0.541123
0.534381 0.015852 0.550642
0.660036 0.014288 0.561940
0.788909 0.012250 0.571865
0.919866 0.010302 0.579174
0.000000 0.116046 0.557625
0.103952 0.118829 0.564784
0.219305 0.120678 0.573332
0.336985 0.121665 0.583421
0.458960 0.122037 0.591437
0.583880 0.122226 0.596848
0.709738 0.122795 0.599564
0.834376 0.124310 0.599883
0.955991 0.127199 0.598447
0.000000 0.235902 0.604620
0.108386 0.238047 0.610659
0.229695 0.239654 0.614111
0.353498 0.241150 0.614974
0.477855 0.243026 0.613668
0.600955 0.245702 0.610934
0.721569 0.249410 0.607645
0.839306 0.254143 0.604591
0.954591 0.259675 0.602321
0.000000 0.363763 0.629930
0.110071 0.365168 0.627049
0.237099 0.366889 0.623108
0.362648 0.369289 0.618991
0.485796 0.372524 0.615436
0.606432 0.376537 0.612890
0.725074 0.381117 0.611485
0.842537 0.385989 0.611102
0.959616 0.390901 0.611474
0.000000 0.490971 0.630154
0.127321 0.492409 0.626187
0.253710 0.494771 0.623424
0.377208 0.497942 0.621888
0.498509 0.501692 0.621381
0.618432 0.505763 0.621597
0.737673 0.509936 0.622227
0.856685 0.514057 0.623018
0.975682 0.518038 0.623793
0.024771 0.616130 0.632288
0.149619 0.618837 0.631658
0.272110 0.622145 0.631709
0.393140 0.625775 0.632131
0.513372 0.629509 0.632683
0.633203 0.633203 0.633203
0.752811 0.636768 0.633598
0.872224 0.640158 0.633817
0.991385 0.643347 0.633838
0.043247 0.743194 0.642012
0.164680 0.746542 0.642318
0.285425 0.749920 0.642581
0.405780 0.753203 0.642717
0.525856 0.756318 0.642683
0.645648 0.759226 0.642458
0.765090 0.761902 0.642032
0.884081 0.764333 0.641401
1.000000 0.766697 0.640993
0.053715 0.871101 0.651802
0.174663 0.873875 0.651515
0.295313 0.876428 0.651045
0.415620 0.878730 0.650382
0.535606 0.880727 0.649579
0.656380 0.882606 0.649232
0.778576 0.885568 0.649567
0.899617 0.889089 0.650550
1.000000 0.892452 0.652022
0.061918 0.996765 0.658697
0.183820 0.998038 0.657815
0.308892 0.999253 0.657523
0.435726 1.000000 0.657905
0.561182 1.000000 0.658889
0.682804 1.000000 0.660284
0.798994 1.000000 0.661797
0.911563 1.000000 0.663055
1.000000 1.000000 0.663626
0.000000 0.013966 0.541743
0.074059 0.015656 0.592173
0.178862 0.017267 0.616942
0.292168 0.018169 0.633607
0.411487 0.018142 0.647639
0.534294 0.017189 0.662009
0.659187 0.015503 0.677268
0.787573 0.013502 0.689808
0.917529 0.011803 0.698993
0.000000 0.117593 0.663525
0.103858 0.120284 0.675200
0.217766 0.122012 0.688658
0.335178 0.122913 0.701817
0.456838 0.123303 0.712081
0.581132 0.123667 0.718954
0.706004 0.124583 0.722336
0.829372 0.126586 0.722611
0.949634 0.130027 0.720588
0.000000 0.236947 0.725976
0.106385 0.239070 0.733862
0.227521 0.240755 0.738343
0.350910 0.242465 0.739452
0.474596 0.244682 0.737735
0.596869 0.247777 0.734130
0.716678 0.251908 0.729733
0.833814 0.256990 0.725539
0.948817 0.262750 0.722249
0.000000 0.364313 0.755952
0.109481 0.365943 0.752318
0.236027 0.368001 0.747257
0.360919 0.370789 0.741881
0.483405 0.374392 0.737118
0.603520 0.378699 0.733545
0.721851 0.383471 0.731356
0.839201 0.388436 0.730439
0.956297 0.393364 0.730498
0.000000 0.491359 0.753793
0.128204 0.493246 0.748580
0.253673 0.496014 0.744801
0.376404 0.499504 0.742516
0.497140 0.503471 0.741513
0.616681 0.507670 0.741445
0.735660 0.511903 0.741945
0.854469 0.516043 0.742707
0.973273 0.520018 0.743507
0.026270 0.616932 0.753683
0.150100 0.619982 0.752595
0.271837 0.623520 0.752386
0.392324 0.627288 0.752686
0.512153 0.631095 0.753200
0.631658 0.634820 0.753725
0.750971 0.638391 0.754133
0.870094 0.641772 0.754352
0.988955 0.644942 0.754343
0.043604 0.744257 0.763401
0.164474 0.747722 0.763657
0.284789 0.751158 0.763901
0.404785 0.754464 0.764018
0.524533 0.757580 0.763947
0.644006 0.760473 0.763655
0.763125 0.763125 0.763125
0.881750 0.765533 0.762358
0.999782 0.768241 0.761561
0.053637 0.871979 0.773855
0.174227 0.874760 0.773494
0.294539 0.877303 0.772918
0.414513 0.879583 0.772111
0.534421 0.881472 0.771104
0.655952 0.883756 0.770159
0.778286 0.887035 0.769507
0.898743 0.890630 0.769232
1.000000 0.893810 0.769287
0.061771 0.997216 0.781047
0.184501 0.998314 0.779820
0.310688 0.999866 0.778735
0.437624 1.000000 0.777982
0.562353 1.000000 0.777606
0.682591 1.000000 0.777524
0.797576 1.000000 0.777543
0.909517 1.000000 0.777381
1.000000 1.000000 0.776685
0.000000 0.015848 0.638266
0.074638 0.017581 0.688696
0.180033 0.019161 0.715822
0.293476 0.019860 0.736559
0.412323 0.019609 0.755191
0.533869 0.018471 0.774584
0.658409 0.016708 0.793027
0.786186 0.014808 0.807854
0.915026 0.013431 0.818494
0.000000 0.119185 0.770072
0.103407 0.121751 0.786533
0.216155 0.123350 0.804521
0.333416 0.124185 0.820378
0.454730 0.124633 0.832530
0.578360 0.125222 0.840431
0.702226 0.126530 0.844035
0.824355 0.129045 0.843886
0.943358 0.133032 0.841015
0.000000 0.238044 0.847208
0.104488 0.240160 0.856556
0.225474 0.241955 0.861627
0.348456 0.243914 0.862560
0.471485 0.246498 0.860099
0.592974 0.250014 0.855430
0.712051 0.254543 0.849886
0.828676 0.259933 0.844651
0.943475 0.265872 0.840540
0.000000 0.364984 0.880317
0.109136 0.366868 0.875656
0.235175 0.369278 0.869353
0.359406 0.372446 0.862751
0.481250 0.376392 0.856937
0.600873 0.380955 0.852572
0.718915 0.385880 0.849863
0.836154 0.390907 0.848661
0.953248 0.395832 0.848615
0.001534 0.491949 0.875353
0.129143 0.494268 0.869103
0.253697 0.497408 0.864574
0.375683 0.501177 0.861815
0.495877 0.505325 0.860562
0.615046 0.509623 0.860406
0.733763 0.513898 0.860921
0.852358 0.518044 0.861749
0.970954 0.522008 0.862631
0.027644 0.617901 0.873785
0.150512 0.621248 0.872477
0.271544 0.624978 0.872192
0.391523 0.628855 0.872500
0.510967 0.632717 0.873062
0.630153 0.636461 0.873640
0.749172 0.640030 0.874085
0.868003 0.643396 0.874312
0.986563 0.646543 0.874274
0.043891 0.745399 0.884047
0.164242 0.748954 0.884328
0.284153 0.752433 0.884593
0.403803 0.755750 0.884712
0.523230 0.758858 0.884611
0.642386 0.761732 0.884251
0.761183 0.764355 0.883610
0.879406 0.766759 0.882571
0.997736 0.770002 0.881076
0.053548 0.872889 0.895276
0.173792 0.875669 0.894846
0.293774 0.878194 0.894162
0.413425 0.880444 0.893204
0.533617 0.882308 0.891732
0.655902 0.885057 0.889915
0.778140 0.888571 0.888101
0.897818 0.892151 0.886484
1.000000 0.895055 0.885119
0.061954 0.997590 0.902679
0.185885 0.998746 0.900785
0.312865 1.000000 0.898672
0.439627 1.000000 0.896645
0.563393 1.000000 0.894858
0.682053 1.000000 0.893326
0.796179 1.000000 0.891948
0.907490 1.000000 0.890521
1.000000 1.000000 0.888764
0.000000 0.017671 0.736447
0.075564 0.019579 0.784892
0.181472 0.020988 0.815557
0.294857 0.021474 0.840561
0.412967 0.021007 0.863990
0.533405 0.019711 0.888000
0.657643 0.017923 0.909177
0.784700 0.016193 0.925893
0.912329 0.015206 0.937530
0.000000 0.120800 0.877559
0.102492 0.123219 0.899006
0.214569 0.124693 0.920820
0.331682 0.125488 0.939049
0.452624 0.126040 0.952666
0.575558 0.126904 0.961131
0.698415 0.128644 0.964524
0.819353 0.131686 0.963614
0.937203 0.136202 0.959703
0.000000 0.239191 0.968252
0.102713 0.241322 0.978619
0.223567 0.243263 0.983823
0.346144 0.245506 0.984181
0.468534 0.248473 0.980701
0.589284 0.252404 0.974846
0.707701 0.257302 0.968189
0.823893 0.262955 0.962068
0.938554 0.269026 0.957361
0.000000 0.365781 1.000000
0.109028 0.367948 0.997039
0.234531 0.370717 0.989447
0.358096 0.374252 0.981718
0.479316 0.378509 0.975057
0.598474 0.383290 0.970155
0.716243 0.388333 0.967182
0.833369 0.393395 0.965921
0.950438 0.398299 0.965948
0.003495 0.492732 0.994981
0.130114 0.495460 0.987940
0.253763 0.498937 0.982935
0.375029 0.502946 0.979960
0.494704 0.507242 0.978675
0.613512 0.511614 0.978595
0.731965 0.515914 0.979236
0.850337 0.520058 0.980201
0.968712 0.524005 0.981203
0.028890 0.619019 0.992767
0.150854 0.622621 0.991445
0.271230 0.626507 0.991233
0.390732 0.630470 0.991650
0.509810 0.634369 0.992319
0.628683 0.638121 0.992983
0.747410 0.641681 0.993479
0.865947 0.645028 0.993716
0.984203 0.648149 0.993643
0.044114 0.746608 1.000000
0.163988 0.750232 1.000000
0.283517 0.753738 1.000000
0.402834 0.757057 1.000000
0.521945 0.760151 1.000000
0.640787 0.762999 1.000000
0.759262 0.765589 1.000000
0.877251 0.768111 1.000000
0.995968 0.771947 0.999429
0.053450 0.873828 1.000000
0.173359 0.876597 1.000000
0.293017 0.879099 1.000000
0.412506 0.881276 1.000000
0.533380 0.883344 1.000000
0.656156 0.886480 1.000000
0.778073 0.890144 1.000000
0.896782 0.893620 1.000000
1.000000 0.896157 0.999563
0.062551 0.997878 1.000000
0.187869 0.999315 1.000000
0.315330 1.000000 1.000000
0.441648 1.000000 1.000000
0.564227 1.000000 1.000000
0.681365 1.000000 1.000000
0.794789 1.000000 1.000000
0.905467 1.000000 1.000000
1.000000 1.000000 1.000000
