assets/base_profile.cube
TITLE "ProPhoto Linear Mature Base: MidSat+HueRot+Split"
LUT_3D_SIZE 9
0.000000 0.000000 0.010000
0.110691 0.000903 0.011748
0.234404 0.000986 0.012686
0.363084 0.000067 0.011360
0.495229 0.000000 0.008119
0.626803 0.000000 0.004781
0.758641 0.000000 0.001882
0.890685 0.000000 0.000141
1.000000 0.000000 0.000000
0.000000 0.123924 0.007350
0.120262 0.123879 0.003850
0.249352 0.123333 0.000635
0.378645 0.122450 0.000000
0.507864 0.121156 0.000000
0.638628 0.119394 0.000000
0.771215 0.117140 0.000000
0.905532 0.114415 0.000000
1.000000 0.111296 0.000000
0.000000 0.249647 0.000000
0.122908 0.249141 0.000000
0.250854 0.248236 0.000000
0.380469 0.246882 0.000000
0.511763 0.245069 0.000000
0.644563 0.242834 0.000000
0.778499 0.240267 0.000000
0.913018 0.237509 0.000000
1.000000 0.234740 0.000000
0.000000 0.377350 0.000000
0.115646 0.376425 0.000000
0.245695 0.375013 0.000000
0.377217 0.373160 0.000000
0.509791 0.370968 0.000000
0.642844 0.368583 0.000000
0.775711 0.366179 0.000000
0.907719 0.363940 0.000000
1.000000 0.362031 0.000000
0.000000 0.506521 0.000000
0.105476 0.504744 0.000000
0.237735 0.502571 0.000000
0.370511 0.500162 0.000000
0.503137 0.497703 0.000000
0.634980 0.495372 0.000000
0.765514 0.493328 0.000000
0.894384 0.491685 0.000000
1.000000 0.490509 0.000000
0.000000 0.634004 0.000000
0.099565 0.631151 0.000000
0.233209 0.628247 0.000000
0.366045 0.625483 0.000000
0.497592 0.623014 0.000000
0.627552 0.620948 0.000000
0.755819 0.619338 0.000000
0.882464 0.618187 0.000000
1.000000 0.617455 0.000000
0.000000 0.756999 0.000000
0.103129 0.753642 0.000000
0.236094 0.750662 0.000000
0.367351 0.748152 0.000000
0.496861 0.746145 0.000000
0.624742 0.744629 0.000000
0.751222 0.743553 0.000000
0.876586 0.742843 0.000000
1.000000 0.742418 0.000000
0.000000 0.876269 0.000000
0.113420 0.873461 0.000000
0.243726 0.871231 0.000000
0.372325 0.869535 0.000000
0.499492 0.868304 0.000000
0.625528 0.867453 0.000000
0.750729 0.866890 0.000000
0.875223 0.866442 0.003277
0.999057 0.866402 0.008960
0.000000 0.995072 0.000000
0.123647 0.993400 0.000000
0.250923 0.992196 0.000000
0.377292 0.991273 0.000000
0.503516 0.990260 0.002245
0.630007 0.989803 0.008394
0.756495 0.990170 0.015476
0.881942 0.991061 0.022983
1.000000 0.992114 0.030331
0.000000 0.001562 0.129509
0.111406 0.002258 0.132377
0.235923 0.002012 0.134832
0.365460 0.000841 0.134792
0.497297 0.000000 0.132790
0.628472 0.000000 0.130278
0.760175 0.000000 0.128483
0.892135 0.000000 0.127926
1.000000 0.000000 0.127143
0.000000 0.125263 0.131250
0.121145 0.125000 0.128855
0.250141 0.124355 0.126476
0.379048 0.123348 0.125159
0.508326 0.121910 0.124637
0.639357 0.119993 0.123658
0.772185 0.117585 0.122204
0.906669 0.114725 0.120313
1.000000 0.111509 0.118078
0.000000 0.250808 0.121974
0.122311 0.250183 0.121269
0.250454 0.249141 0.120091
0.380279 0.247641 0.118445
0.511756 0.245688 0.116391
0.644666 0.243337 0.114041
0.778595 0.240696 0.111562
0.912957 0.237919 0.109159
1.000000 0.235194 0.107056
0.000000 0.378419 0.114613
0.114552 0.377337 0.112411
0.244827 0.375776 0.109971
0.376511 0.373802 0.107477
0.509144 0.371531 0.105144
0.642127 0.369122 0.103201
0.774788 0.366753 0.101857
0.906470 0.364606 0.101282
1.000000 0.362836 0.101581
0.000000 0.507327 0.103402
0.104442 0.505404 0.101175
0.236900 0.503133 0.099424
0.369748 0.500685 0.098347
0.502316 0.498245 0.098091
0.633989 0.495989 0.098735
0.764278 0.494062 0.100277
0.892872 0.492564 0.102643
1.000000 0.491540 0.105690
0.000000 0.634414 0.094951
0.099365 0.631516 0.095029
0.233048 0.628632 0.096022
0.365801 0.625943 0.097898
0.497181 0.623592 0.100555
0.626934 0.621666 0.103833
0.754999 0.620203 0.107535
0.881481 0.619190 0.111456
1.000000 0.618578 0.115403
0.000000 0.757159 0.095640
0.103865 0.753906 0.098569
0.236633 0.751067 0.102050
0.367652 0.748716 0.105881
0.496924 0.746870 0.109856
0.624601 0.745501 0.113790
0.750929 0.744550 0.117532
0.876199 0.743940 0.120975
1.000000 0.743589 0.124058
0.000000 0.876549 0.104264
0.114454 0.873929 0.108267
0.244440 0.871879 0.112166
0.372764 0.870343 0.115826
0.499713 0.869244 0.119157
0.625594 0.868497 0.122114
0.750713 0.867985 0.124969
0.875092 0.867579 0.129093
0.999221 0.867867 0.134419
0.000000 0.995717 0.114087
0.124384 0.994209 0.117298
0.251398 0.993138 0.120125
0.377874 0.992189 0.123354
0.504308 0.991246 0.127968
0.631208 0.991090 0.133668
0.757746 0.991663 0.140076
0.882938 0.992644 0.146738
1.000000 0.993649 0.153120
0.000000 0.003083 0.249622
0.112094 0.003512 0.254214
0.237576 0.002941 0.258141
0.367683 0.001588 0.259281
0.498898 0.000262 0.258019
0.630042 0.000000 0.256356
0.761491 0.000000 0.255859
0.893598 0.000000 0.256314
1.000000 0.000000 0.256404
0.000000 0.126511 0.256069
0.121949 0.126092 0.254334
0.250739 0.125340 0.252969
0.379242 0.124204 0.253015
0.508763 0.122616 0.253328
0.640049 0.120542 0.253241
0.773098 0.117984 0.252712
0.907717 0.115000 0.251745
1.000000 0.111705 0.250387
0.000000 0.251934 0.250121
0.121657 0.251185 0.250271
0.250000 0.250000 0.250000
0.380032 0.248355 0.249284
0.511681 0.246268 0.248141
0.644682 0.243813 0.246642
0.778579 0.241113 0.244906
0.912756 0.238337 0.243096
1.000000 0.235679 0.241400
0.000000 0.379438 0.245780
0.113428 0.378200 0.244473
0.243930 0.376497 0.242850
0.375770 0.374414 0.241051
0.508450 0.372081 0.239250
0.641348 0.369666 0.237640
0.773793 0.367352 0.236408
0.905146 0.365313 0.235715
1.000000 0.363694 0.235669
0.000000 0.508081 0.237187
0.103461 0.506026 0.235425
0.236110 0.503674 0.233931
0.369017 0.501206 0.232884
0.501515 0.498805 0.232428
0.633013 0.496640 0.232653
0.763059 0.494840 0.233581
0.891390 0.493490 0.235174
1.000000 0.492618 0.237337
0.000000 0.634799 0.229445
0.099270 0.631877 0.229244
0.232970 0.629033 0.229744
0.365623 0.626436 0.230945
0.496825 0.624211 0.232784
0.626370 0.622431 0.235148
0.754238 0.621113 0.237890
0.880565 0.620233 0.240852
1.000000 0.619732 0.243879
0.000000 0.757346 0.228412
0.104666 0.754210 0.230482
0.237218 0.751521 0.233028
0.367987 0.749332 0.235893
0.497019 0.747643 0.238918
0.624495 0.746416 0.241955
0.750676 0.745582 0.244884
0.875857 0.745063 0.247614
1.000000 0.744778 0.250094
0.000000 0.876889 0.233934
0.115477 0.874457 0.237001
0.245142 0.872581 0.240030
0.373195 0.871196 0.242911
0.499934 0.870221 0.245568
0.625667 0.869569 0.247960
0.750732 0.869086 0.250679
0.875116 0.868803 0.254569
0.999547 0.869432 0.259412
0.000000 0.996419 0.240919
0.125078 0.995065 0.243495
0.251889 0.994097 0.245843
0.378568 0.993094 0.249016
0.505373 0.992341 0.253301
0.632564 0.992455 0.258440
0.759042 0.993197 0.264108
0.883881 0.994225 0.269902
1.000000 0.995131 0.275341
0.000000 0.004537 0.370729
0.112742 0.004659 0.377405
0.239283 0.003790 0.382601
0.369668 0.002347 0.384591
0.500392 0.001130 0.383712
0.631467 0.000000 0.383096
0.762623 0.000000 0.384009
0.895064 0.000000 0.385335
1.000000 0.000000 0.386336
0.000000 0.127685 0.381489
0.122633 0.127153 0.380351
0.251104 0.126287 0.380194
0.379401 0.125013 0.381473
0.509168 0.123273 0.382668
0.640698 0.121042 0.383502
0.773945 0.118341 0.383901
0.908667 0.115246 0.383822
1.000000 0.111890 0.383270
0.000000 0.253024 0.378886
0.120946 0.252143 0.379935
0.249493 0.250813 0.380592
0.379729 0.249024 0.380794
0.511538 0.246812 0.380516
0.644609 0.244266 0.379783
0.778448 0.241526 0.378673
0.912416 0.238772 0.377311
1.000000 0.236200 0.375856
0.000000 0.380408 0.377604
0.112281 0.379015 0.377133
0.243012 0.377179 0.376232
0.375000 0.375000 0.375000
0.507714 0.372623 0.373576
0.640515 0.370222 0.372130
0.772734 0.367980 0.370836
0.903757 0.366065 0.369859
1.000000 0.364608 0.369325
0.000000 0.508786 0.371293
0.102543 0.506614 0.369835
0.235372 0.504202 0.368425
0.368324 0.501733 0.367237
0.500741 0.499389 0.366423
0.632058 0.497327 0.366091
0.761866 0.495664 0.366301
0.889944 0.494465 0.367054
1.000000 0.493742 0.368300
0.000000 0.635167 0.363696
0.099282 0.632243 0.363063
0.232975 0.629457 0.362945
0.365509 0.626965 0.363379
0.496525 0.624875 0.364345
0.625860 0.623241 0.365776
0.753536 0.622067 0.367572
0.879718 0.621314 0.369615
1.000000 0.620915 0.371785
0.000000 0.757564 0.360546
0.105526 0.754560 0.361716
0.237841 0.752026 0.363319
0.368352 0.749999 0.365243
0.497143 0.748464 0.367367
0.624421 0.747370 0.369575
0.750459 0.746646 0.371766
0.875556 0.746209 0.373862
0.999992 0.745982 0.375814
0.000000 0.877290 0.362957
0.116484 0.875043 0.365146
0.245828 0.873334 0.367376
0.373616 0.872092 0.369555
0.500153 0.871232 0.371615
0.625756 0.870660 0.373545
0.750789 0.870198 0.376131
0.875369 0.870152 0.379641
1.000000 0.871084 0.383898
0.000000 0.997175 0.367338
0.125729 0.995965 0.369355
0.252522 0.995029 0.371409
0.379375 0.993998 0.374362
0.506675 0.993535 0.378187
0.634038 0.993888 0.382679
0.760349 0.994760 0.387564
0.884737 0.995787 0.392492
1.000000 0.996557 0.397038
0.000000 0.005904 0.493121
0.113521 0.005702 0.501820
0.240972 0.004582 0.508096
0.371342 0.003163 0.510384
0.501813 0.001954 0.509953
0.632705 0.000307 0.510578
0.763751 0.000000 0.512777
0.896524 0.000000 0.515013
1.000000 0.000000 0.516950
0.000000 0.128810 0.507198
0.123153 0.128181 0.506987
0.251192 0.127193 0.508228
0.379527 0.125775 0.510559
0.509535 0.123879 0.512677
0.641297 0.121495 0.514448
0.774719 0.118660 0.515755
0.909509 0.115469 0.516511
1.000000 0.112072 0.516677
0.000000 0.254075 0.508295
0.120178 0.253056 0.510277
0.248932 0.251580 0.511865
0.379368 0.249651 0.512955
0.511324 0.247322 0.513475
0.644447 0.244701 0.513407
0.778205 0.241941 0.512790
0.911938 0.239230 0.511718
1.000000 0.236766 0.510333
0.000000 0.381327 0.510061
0.111119 0.379785 0.510345
0.242077 0.377826 0.510052
0.374207 0.375567 0.509243
0.506943 0.373163 0.508033
0.639635 0.370796 0.506577
0.771621 0.368644 0.505053
0.902314 0.366866 0.503637
1.000000 0.365578 0.502483
0.000000 0.509447 0.505636
0.101695 0.507175 0.504314
0.234692 0.504721 0.502816
0.367675 0.502271 0.501321
0.500000 0.500000 0.500000
0.631132 0.498055 0.498994
0.760704 0.496535 0.498399
0.888542 0.495488 0.498261
1.000000 0.494910 0.498578
0.000000 0.635524 0.497622
0.099400 0.632620 0.496419
0.233061 0.629909 0.495575
0.365458 0.627534 0.495169
0.496278 0.625585 0.495225
0.625404 0.624098 0.495722
0.752893 0.623062 0.496601
0.878937 0.622429 0.497777
1.000000 0.622124 0.499157
0.000000 0.757819 0.492019
0.106435 0.754956 0.492266
0.238497 0.752583 0.492935
0.368742 0.750717 0.493956
0.497292 0.749329 0.495239
0.624375 0.748362 0.496688
0.750277 0.747739 0.498219
0.875294 0.747376 0.499758
0.999686 0.747202 0.501270
0.000000 0.877752 0.491363
0.117469 0.875686 0.492737
0.246496 0.874137 0.494242
0.374024 0.873029 0.495797
0.500367 0.872273 0.497337
0.625901 0.871751 0.498950
0.750892 0.871329 0.501249
0.875821 0.871614 0.504257
1.000000 0.872808 0.507849
0.000000 0.997981 0.493383
0.126337 0.996904 0.494915
0.253299 0.995938 0.496742
0.380435 0.994982 0.499325
0.508175 0.994818 0.502583
0.635593 0.995375 0.506364
0.761628 0.996335 0.510447
0.885467 0.997313 0.514537
1.000000 0.998003 0.518264
0.000000 0.007172 0.616983
0.114425 0.006648 0.627411
0.242582 0.005347 0.634407
0.372692 0.004060 0.636326
0.503118 0.002730 0.636824
0.633709 0.000920 0.638878
0.764880 0.000000 0.642182
0.897968 0.000000 0.645366
1.000000 0.000000 0.648250
0.000000 0.129907 0.633381
0.123467 0.129173 0.634322
0.251069 0.128055 0.637038
0.379617 0.126488 0.640299
0.509861 0.124436 0.643368
0.641839 0.121903 0.646075
0.775411 0.118944 0.648254
0.910237 0.115673 0.649772
1.000000 0.112257 0.650546
0.000000 0.255084 0.638372
0.119354 0.253923 0.641304
0.248319 0.252302 0.643811
0.378950 0.250239 0.645738
0.511042 0.247805 0.646971
0.644196 0.245125 0.647447
0.777850 0.242365 0.647174
0.911329 0.239718 0.646226
1.000000 0.237382 0.644739
0.000000 0.382196 0.643113
0.109949 0.380511 0.644053
0.241135 0.378442 0.644237
0.373397 0.376119 0.643696
0.506144 0.373709 0.642530
0.638715 0.371394 0.640892
0.770462 0.369349 0.638974
0.900830 0.367720 0.636976
1.000000 0.366607 0.635089
0.000000 0.510069 0.640130
0.100926 0.507715 0.638771
0.234076 0.505239 0.637013
0.367075 0.502826 0.635055
0.499297 0.500644 0.633094
0.630240 0.498825 0.631310
0.759581 0.497453 0.629845
0.887190 0.496558 0.628788
1.000000 0.496119 0.628178
0.000000 0.635880 0.631146
0.099620 0.633014 0.629250
0.233225 0.630394 0.627591
0.365469 0.628145 0.626292
0.496085 0.626341 0.625422
0.625000 0.625000 0.625000
0.752307 0.624098 0.625003
0.878221 0.623576 0.625373
1.000000 0.623357 0.626036
0.000000 0.758115 0.622815
0.107386 0.755403 0.622134
0.239178 0.753192 0.621896
0.369152 0.751483 0.622063
0.497461 0.750238 0.622569
0.624354 0.749389 0.623336
0.750125 0.748858 0.624284
0.875066 0.748562 0.625341
0.999356 0.748448 0.626518
0.000000 0.878274 0.619184
0.118429 0.876383 0.619813
0.247141 0.874987 0.620671
0.374418 0.874002 0.621679
0.500575 0.873343 0.622771
0.626109 0.872846 0.624099
0.751181 0.872553 0.625968
0.876444 0.873176 0.628374
1.000000 0.874588 0.631245
0.000000 0.998835 0.619094
0.126968 0.997859 0.620229
0.254212 0.996836 0.621762
0.381782 0.996075 0.623848
0.509834 0.996179 0.626456
0.637189 0.996903 0.629487
0.762842 0.997907 0.632774
0.886035 0.998784 0.636078
1.000000 0.999476 0.639087
0.000000 0.008334 0.742369
0.115403 0.007515 0.754076
0.244058 0.006122 0.761208
0.373954 0.004933 0.762721
0.504262 0.003456 0.764403
0.634525 0.001477 0.767982
0.766002 0.000000 0.772251
0.899386 0.000000 0.776406
1.000000 0.000000 0.780230
0.000000 0.130974 0.760151
0.123531 0.130126 0.762434
0.250901 0.128871 0.766486
0.379667 0.127152 0.770713
0.510140 0.124944 0.774748
0.642318 0.122268 0.778370
0.776015 0.119198 0.781366
0.910842 0.115867 0.783554
1.000000 0.112455 0.784810
0.000000 0.256050 0.769132
0.118476 0.254745 0.773017
0.247655 0.252980 0.776409
0.378476 0.250790 0.779106
0.510690 0.248265 0.780945
0.643858 0.245544 0.781829
0.777386 0.242804 0.781741
0.910591 0.240243 0.780745
1.000000 0.238053 0.778983
0.000000 0.383018 0.776715
0.108780 0.381199 0.778195
0.240191 0.379032 0.778709
0.372577 0.376663 0.778271
0.505323 0.374265 0.776975
0.637763 0.372021 0.774986
0.769267 0.370098 0.772519
0.899316 0.368628 0.769811
1.000000 0.367694 0.767095
0.000000 0.510657 0.774683
0.100241 0.508241 0.773114
0.233529 0.505762 0.770932
0.366529 0.503404 0.768363
0.498636 0.501325 0.765645
0.629386 0.499641 0.763002
0.758500 0.498420 0.760619
0.885893 0.497673 0.758631
1.000000 0.497368 0.757116
0.000000 0.636239 0.764200
0.099941 0.633431 0.761506
0.233465 0.630915 0.758962
0.365538 0.628801 0.756735
0.495943 0.627143 0.754939
0.624647 0.625946 0.753629
0.751777 0.625171 0.752809
0.877568 0.624752 0.752441
1.000000 0.624610 0.752462
0.000000 0.758456 0.752928
0.108370 0.755900 0.751331
0.239880 0.753852 0.750225
0.369578 0.752297 0.749597
0.497648 0.751187 0.749398
0.624356 0.750448 0.749559
0.750000 0.750000 0.750000
0.874869 0.749763 0.750646
0.999005 0.749726 0.751485
0.000000 0.878855 0.746457
0.119357 0.877133 0.746416
0.247761 0.875880 0.746703
0.374795 0.875010 0.747239
0.500799 0.874430 0.747955
0.626380 0.873953 0.748912
0.751711 0.873901 0.750233
0.877209 0.874824 0.751961
1.000000 0.876408 0.754081
0.000551 0.999732 0.744509
0.127772 0.998784 0.745305
0.255262 0.997735 0.746400
0.383376 0.997266 0.747885
0.511614 0.997606 0.749783
0.638789 0.998457 0.752048
0.763951 0.999459 0.754571
0.886443 1.000000 0.757168
1.000000 1.000000 0.759587
0.000000 0.009394 0.869059
0.116413 0.008325 0.881613
0.245353 0.006953 0.888073
0.375126 0.005761 0.889712
0.505202 0.004129 0.892770
0.635330 0.001977 0.897737
0.767109 0.000000 0.903001
0.900767 0.000000 0.908138
1.000000 0.000000 0.912876
0.000000 0.132008 0.887587
0.123301 0.131038 0.891399
0.250690 0.129640 0.896594
0.379673 0.127767 0.901817
0.510368 0.125406 0.906815
0.642729 0.122595 0.911315
0.776524 0.119429 0.915051
0.911318 0.116056 0.917797
1.000000 0.112673 0.919394
0.000000 0.256972 0.900584
0.117545 0.255520 0.905407
0.246941 0.253615 0.909633
0.377949 0.251309 0.913009
0.510272 0.248707 0.915332
0.643434 0.245964 0.916474
0.776818 0.243266 0.916402
0.909734 0.240810 0.915183
1.000000 0.238785 0.912977
0.000000 0.383794 0.910812
0.107620 0.381850 0.912698
0.239255 0.379602 0.913384
0.371756 0.377205 0.912876
0.504488 0.374839 0.911276
0.636788 0.372683 0.908773
0.768046 0.370895 0.905615
0.897782 0.369593 0.902085
1.000000 0.368840 0.898463
0.000000 0.511218 0.909204
0.099647 0.508757 0.907252
0.233055 0.506296 0.904489
0.366040 0.504010 0.901179
0.498022 0.502046 0.897604
0.628576 0.500504 0.894038
0.757468 0.499434 0.890711
0.884656 0.498832 0.887799
1.000000 0.498652 0.885413
0.000000 0.636608 0.896721
0.100358 0.633875 0.893141
0.233776 0.631476 0.889662
0.365663 0.629502 0.886495
0.495849 0.627992 0.883791
0.624343 0.626934 0.881635
0.751301 0.626279 0.880053
0.876975 0.625955 0.879020
1.000000 0.625881 0.878477
0.000000 0.758845 0.882360
0.109380 0.756449 0.879874
0.240596 0.754562 0.877950
0.370014 0.753157 0.876594
0.497848 0.752174 0.875766
0.624376 0.751537 0.875398
0.749900 0.751163 0.875407
0.874694 0.750980 0.875702
0.998644 0.751039 0.876096
0.000000 0.879493 0.873220
0.120252 0.877932 0.872585
0.248354 0.876813 0.872378
0.375155 0.876049 0.872514
0.501109 0.875516 0.872874
0.626721 0.875080 0.873325
0.752453 0.875361 0.874000
0.878084 0.876542 0.875000
1.000000 0.878251 0.876361
0.001289 1.000000 0.869663
0.128746 0.999687 0.870063
0.256592 0.998718 0.870597
0.385175 0.998545 0.871401
0.513473 0.999086 0.872553
0.640350 1.000000 0.874063
0.764914 1.000000 0.875877
0.886841 1.000000 0.877873
1.000000 1.000000 0.879856
0.000000 0.010358 0.996927
0.117421 0.009107 1.000000
0.246461 0.007859 1.000000
0.376165 0.006542 1.000000
0.505892 0.004748 1.000000
0.636124 0.002420 1.000000
0.768193 0.000000 1.000000
0.902100 0.000000 1.000000
1.000000 0.000000 1.000000
0.000000 0.133006 1.000000
0.122860 0.131906 1.000000
0.250433 0.130361 1.000000
0.379632 0.128332 1.000000
0.510539 0.125822 1.000000
0.643067 0.122888 1.000000
0.776933 0.119642 1.000000
0.911661 0.116250 1.000000
1.000000 0.112919 1.000000
0.000000 0.257848 1.000000
0.116566 0.256251 1.000000
0.246182 0.254211 1.000000
0.377369 0.251799 1.000000
0.509789 0.249138 1.000000
0.642929 0.246393 1.000000
0.776149 0.243757 1.000000
0.908763 0.241428 1.000000
1.000000 0.239581 1.000000
0.000000 0.384526 1.000000
0.106479 0.382471 1.000000
0.238333 0.380157 1.000000
0.370939 0.377751 1.000000
0.503646 0.375435 1.000000
0.635798 0.373384 1.000000
0.766809 0.371744 1.000000
0.896240 0.370616 1.000000
1.000000 0.370044 1.000000
0.000000 0.511756 1.000000
0.099149 0.509272 1.000000
0.232659 0.506847 1.000000
0.365612 0.504648 1.000000
0.497457 0.502809 1.000000
0.627812 0.501415 1.000000
0.756487 0.500496 1.000000
0.883481 0.500033 1.000000
1.000000 0.499969 1.000000
0.000000 0.636994 1.000000
0.100866 0.634351 1.000000
0.234153 0.632078 1.000000
0.365840 0.630250 1.000000
0.495801 0.628886 1.000000
0.624085 0.627962 1.000000
0.750876 0.627419 1.000000
0.876440 0.627182 1.000000
1.000000 0.627166 1.000000
0.000000 0.759283 1.000000
0.110408 0.757050 1.000000
0.241319 0.755322 1.000000
0.370457 0.754060 1.000000
0.498058 0.753196 1.000000
0.624413 0.752652 1.000000
0.749820 0.752345 1.000000
0.874522 0.752223 1.000000
0.998285 0.752391 1.000000
0.000000 0.880186 0.999513
0.121110 0.878777 0.998362
0.248919 0.877783 0.997735
0.375497 0.877116 0.997539
0.501508 0.876606 0.997452
0.627275 0.876303 0.997280
0.753374 0.876920 0.997238
0.879039 0.878316 0.997481
1.000000 0.880100 0.998102
0.002063 1.000000 0.994566
0.129881 1.000000 0.994434
0.258222 0.999809 0.994305
0.387139 0.999901 0.994373
0.515369 1.000000 0.994767
0.641832 1.000000 0.995556
0.765691 1.000000 0.996745
0.887239 1.000000 0.998271
1.000000 1.000000 1.000000
