assets/base_profile.cube
TITLE "ProPhoto Linear Mature Base: MidSat+HueRot+Split"
LUT_3D_SIZE 33
0.000000 0.000000 0.010000
0.020012 0.000270 0.010479
0.050099 0.000518 0.010939
0.080312 0.000733 0.011365
0.110691 0.000903 0.011748
0.141269 0.001018 0.012078
0.172069 0.001072 0.012349
0.203106 0.001062 0.012558
0.234404 0.000986 0.012686
0.266069 0.000844 0.012623
0.298096 0.000639 0.012366
0.330449 0.000378 0.011938
0.363084 0.000067 0.011360
0.395946 0.000000 0.010660
0.428973 0.000000 0.009866
0.462094 0.000000 0.009008
0.495229 0.000000 0.008119
0.528289 0.000000 0.007234
0.561175 0.000000 0.006392
0.593956 0.000000 0.005585
0.626803 0.000000 0.004781
0.659707 0.000000 0.003994
0.692656 0.000000 0.003238
0.725638 0.000000 0.002529
0.758641 0.000000 0.001882
0.791653 0.000000 0.001310
0.824662 0.000000 0.000831
0.857655 0.000000 0.000458
0.890685 0.000000 0.000141
0.923841 0.000000 0.000000
0.957127 0.000000 0.000000
0.990543 0.000000 0.000000
1.000000 0.000000 0.000000
0.000000 0.030630 0.010801
0.021176 0.030874 0.011163
0.051470 0.031075 0.011469
0.081953 0.031226 0.011716
0.112646 0.031321 0.011898
0.143615 0.031355 0.011963
0.174951 0.031328 0.011824
0.206634 0.031241 0.011499
0.238636 0.031097 0.011010
0.270917 0.030902 0.010382
0.303430 0.030666 0.009641
0.336118 0.030398 0.008817
0.368916 0.030111 0.007942
0.401751 0.029822 0.007048
0.434539 0.029548 0.006173
0.467202 0.029307 0.005350
0.499871 0.029059 0.004542
0.532596 0.028786 0.003741
0.565366 0.028488 0.002962
0.598171 0.028163 0.002221
0.630998 0.027811 0.001531
0.663835 0.027429 0.000908
0.696671 0.027017 0.000368
0.729492 0.026573 0.000000
0.762293 0.026098 0.000000
0.795173 0.025590 0.000000
0.828176 0.025048 0.000000
0.861304 0.024473 0.000000
0.894557 0.023864 0.000000
0.927936 0.023220 0.000000
0.961440 0.022542 0.000000
0.995068 0.021831 0.000000
1.000000 0.021086 0.000000
0.000000 0.061463 0.011071
0.021895 0.061667 0.011224
0.052539 0.061815 0.011211
0.083539 0.061905 0.010998
0.114877 0.061935 0.010608
0.146530 0.061907 0.010062
0.178467 0.061826 0.009386
0.210645 0.061697 0.008609
0.243014 0.061529 0.007760
0.275516 0.061335 0.006871
0.308082 0.061127 0.005978
0.340636 0.060921 0.005118
0.373140 0.060725 0.004306
0.405690 0.060510 0.003498
0.438287 0.060272 0.002703
0.470918 0.060010 0.001935
0.503572 0.059723 0.001209
0.536237 0.059409 0.000541
0.568903 0.059068 0.000000
0.601555 0.058698 0.000000
0.634183 0.058298 0.000000
0.666805 0.057868 0.000000
0.699533 0.057406 0.000000
0.732380 0.056912 0.000000
0.765346 0.056386 0.000000
0.798433 0.055827 0.000000
0.831642 0.055235 0.000000
0.864973 0.054610 0.000000
0.898424 0.053953 0.000000
0.931995 0.053262 0.000000
0.965682 0.052541 0.000000
0.999482 0.051788 0.000000
1.000000 0.051006 0.000000
0.000000 0.092575 0.010146
0.022825 0.092721 0.009693
0.054138 0.092807 0.009094
0.085742 0.092834 0.008375
0.117603 0.092806 0.007565
0.149677 0.092732 0.006695
0.181912 0.092620 0.005799
0.214245 0.092482 0.004912
0.246606 0.092332 0.004071
0.278986 0.092171 0.003262
0.311412 0.091990 0.002455
0.343873 0.091787 0.001667
0.376358 0.091563 0.000912
0.408856 0.091314 0.000204
0.441353 0.091041 0.000000
0.473840 0.090741 0.000000
0.506304 0.090414 0.000000
0.538732 0.090059 0.000000
0.571192 0.089675 0.000000
0.603764 0.089261 0.000000
0.636450 0.088816 0.000000
0.669252 0.088340 0.000000
0.702170 0.087833 0.000000
0.735207 0.087293 0.000000
0.768362 0.086722 0.000000
0.801634 0.086118 0.000000
0.835022 0.085484 0.000000
0.868524 0.084818 0.000000
0.902137 0.084122 0.000000
0.935857 0.083397 0.000000
0.969679 0.082643 0.000000
1.000000 0.081864 0.000000
1.000000 0.081059 0.000000
0.000000 0.123924 0.007350
0.024318 0.123991 0.006511
0.056125 0.124000 0.005626
0.088124 0.123960 0.004726
0.120262 0.123879 0.003850
0.152477 0.123770 0.003028
0.184737 0.123643 0.002217
0.217032 0.123498 0.001414
0.249352 0.123333 0.000635
0.281685 0.123146 0.000000
0.314019 0.122938 0.000000
0.346343 0.122706 0.000000
0.378645 0.122450 0.000000
0.410913 0.122167 0.000000
0.443146 0.121858 0.000000
0.475451 0.121521 0.000000
0.507864 0.121156 0.000000
0.540386 0.120761 0.000000
0.573020 0.120336 0.000000
0.605767 0.119880 0.000000
0.638628 0.119394 0.000000
0.671605 0.118877 0.000000
0.704695 0.118328 0.000000
0.737900 0.117749 0.000000
0.771215 0.117140 0.000000
0.804640 0.116501 0.000000
0.838171 0.115833 0.000000
0.871803 0.115137 0.000000
0.905532 0.114415 0.000000
0.939351 0.113668 0.000000
0.973254 0.112898 0.000000
1.000000 0.112106 0.000000
1.000000 0.111296 0.000000
0.000000 0.155348 0.003655
0.026160 0.155311 0.002796
0.058256 0.155236 0.001983
0.090389 0.155144 0.001172
0.122548 0.155036 0.000376
0.154720 0.154909 0.000000
0.186893 0.154762 0.000000
0.219058 0.154595 0.000000
0.251202 0.154406 0.000000
0.283313 0.154194 0.000000
0.315380 0.153957 0.000000
0.347433 0.153695 0.000000
0.379580 0.153406 0.000000
0.411830 0.153091 0.000000
0.444185 0.152746 0.000000
0.476648 0.152373 0.000000
0.509221 0.151971 0.000000
0.541905 0.151538 0.000000
0.574701 0.151076 0.000000
0.607608 0.150583 0.000000
0.640627 0.150060 0.000000
0.673756 0.149508 0.000000
0.706992 0.148925 0.000000
0.740333 0.148315 0.000000
0.773775 0.147676 0.000000
0.807314 0.147012 0.000000
0.840943 0.146322 0.000000
0.874657 0.145608 0.000000
0.908449 0.144873 0.000000
0.942311 0.144118 0.000000
0.976234 0.143345 0.000000
1.000000 0.142558 0.000000
1.000000 0.141758 0.000000
0.000000 0.186674 0.000129
0.027955 0.186603 0.000000
0.059973 0.186516 0.000000
0.091982 0.186411 0.000000
0.123971 0.186286 0.000000
0.155928 0.186141 0.000000
0.187843 0.185974 0.000000
0.219703 0.185784 0.000000
0.251592 0.185570 0.000000
0.283577 0.185331 0.000000
0.315660 0.185066 0.000000
0.347845 0.184774 0.000000
0.380135 0.184453 0.000000
0.412531 0.184104 0.000000
0.445035 0.183727 0.000000
0.477649 0.183319 0.000000
0.510372 0.182883 0.000000
0.543204 0.182416 0.000000
0.576145 0.181920 0.000000
0.609193 0.181395 0.000000
0.642344 0.180842 0.000000
0.675597 0.180261 0.000000
0.708946 0.179653 0.000000
0.742387 0.179020 0.000000
0.775914 0.178362 0.000000
0.809521 0.177682 0.000000
0.843200 0.176982 0.000000
0.876944 0.176263 0.000000
0.910743 0.175528 0.000000
0.944588 0.174779 0.000000
0.978468 0.174019 0.000000
1.000000 0.173251 0.000000
1.000000 0.172477 0.000000
0.000000 0.218093 0.000000
0.028753 0.218012 0.000000
0.060518 0.217912 0.000000
0.092230 0.217792 0.000000
0.123893 0.217650 0.000000
0.155621 0.217485 0.000000
0.187440 0.217296 0.000000
0.219354 0.217083 0.000000
0.251366 0.216843 0.000000
0.283479 0.216576 0.000000
0.315696 0.216282 0.000000
0.348019 0.215959 0.000000
0.380448 0.215608 0.000000
0.412985 0.215227 0.000000
0.445630 0.214818 0.000000
0.478383 0.214379 0.000000
0.511241 0.213911 0.000000
0.544204 0.213415 0.000000
0.577267 0.212890 0.000000
0.610429 0.212339 0.000000
0.643683 0.211762 0.000000
0.677026 0.211160 0.000000
0.710450 0.210534 0.000000
0.743950 0.209887 0.000000
0.777518 0.209221 0.000000
0.811145 0.208537 0.000000
0.844823 0.207838 0.000000
0.878542 0.207126 0.000000
0.912292 0.206403 0.000000
0.946063 0.205674 0.000000
0.979842 0.204940 0.000000
1.000000 0.204205 0.000000
1.000000 0.203471 0.000000
0.000000 0.249647 0.000000
0.027954 0.249554 0.000000
0.059517 0.249439 0.000000
0.091167 0.249302 0.000000
0.122908 0.249141 0.000000
0.154745 0.248954 0.000000
0.186679 0.248742 0.000000
0.218715 0.248503 0.000000
0.250854 0.248236 0.000000
0.283098 0.247941 0.000000
0.315448 0.247617 0.000000
0.347905 0.247264 0.000000
0.380469 0.246882 0.000000
0.413139 0.246472 0.000000
0.445913 0.246032 0.000000
0.478788 0.245565 0.000000
0.511763 0.245069 0.000000
0.544833 0.244547 0.000000
0.577994 0.244000 0.000000
0.611239 0.243428 0.000000
0.644563 0.242834 0.000000
0.677959 0.242219 0.000000
0.711420 0.241584 0.000000
0.744936 0.240933 0.000000
0.778499 0.240267 0.000000
0.812099 0.239589 0.000000
0.845726 0.238902 0.000000
0.879369 0.238207 0.000000
0.913018 0.237509 0.000000
0.946660 0.236811 0.000000
0.980285 0.236114 0.000000
1.000000 0.235423 0.000000
1.000000 0.234740 0.000000
0.000000 0.281349 0.000000
0.026323 0.281241 0.000000
0.057981 0.281109 0.000000
0.089734 0.280952 0.000000
0.121587 0.280768 0.000000
0.153541 0.280557 0.000000
0.185598 0.280319 0.000000
0.217760 0.280052 0.000000
0.250029 0.279756 0.000000
0.282404 0.279431 0.000000
0.314885 0.279078 0.000000
0.347471 0.278695 0.000000
0.380161 0.278283 0.000000
0.412951 0.277843 0.000000
0.445839 0.277376 0.000000
0.478820 0.276883 0.000000
0.511889 0.276364 0.000000
0.545042 0.275820 0.000000
0.578271 0.275255 0.000000
0.611569 0.274669 0.000000
0.644928 0.274064 0.000000
0.678341 0.273442 0.000000
0.711797 0.272807 0.000000
0.745287 0.272159 0.000000
0.778802 0.271502 0.000000
0.812330 0.270839 0.000000
0.845860 0.270173 0.000000
0.879382 0.269506 0.000000
0.912883 0.268841 0.000000
0.946353 0.268182 0.000000
0.979780 0.267531 0.000000
1.000000 0.266892 0.000000
1.000000 0.266268 0.000000
0.000000 0.313205 0.000000
0.024310 0.313078 0.000000
0.056077 0.312924 0.000000
0.087947 0.312742 0.000000
0.119921 0.312532 0.000000
0.152001 0.312294 0.000000
0.184187 0.312026 0.000000
0.216480 0.311729 0.000000
0.248880 0.311402 0.000000
0.281385 0.311046 0.000000
0.313993 0.310661 0.000000
0.346701 0.310248 0.000000
0.379506 0.309807 0.000000
0.412404 0.309339 0.000000
0.445388 0.308846 0.000000
0.478454 0.308329 0.000000
0.511595 0.307790 0.000000
0.544804 0.307229 0.000000
0.578072 0.306650 0.000000
0.611391 0.306055 0.000000
0.644752 0.305445 0.000000
0.678145 0.304824 0.000000
0.711560 0.304193 0.000000
0.744986 0.303557 0.000000
0.778413 0.302916 0.000000
0.811830 0.302276 0.000000
0.845225 0.301637 0.000000
0.878587 0.301004 0.000000
0.911905 0.300379 0.000000
0.945168 0.299766 0.000000
0.978365 0.299167 0.000000
1.000000 0.298585 0.000000
1.000000 0.298023 0.000000
0.000000 0.345211 0.000000
0.021930 0.345058 0.000000
0.053821 0.344876 0.000000
0.085820 0.344665 0.000000
0.117926 0.344425 0.000000
0.150141 0.344154 0.000000
0.182463 0.343853 0.000000
0.214891 0.343522 0.000000
0.247422 0.343162 0.000000
0.280055 0.342772 0.000000
0.312784 0.342355 0.000000
0.345605 0.341911 0.000000
0.378513 0.341440 0.000000
0.411503 0.340946 0.000000
0.444566 0.340428 0.000000
0.477696 0.339890 0.000000
0.510885 0.339333 0.000000
0.544123 0.338759 0.000000
0.577402 0.338170 0.000000
0.610712 0.337570 0.000000
0.644042 0.336961 0.000000
0.677383 0.336345 0.000000
0.710724 0.335725 0.000000
0.744053 0.335105 0.000000
0.777360 0.334487 0.000000
0.810634 0.333873 0.000000
0.843863 0.333268 0.000000
0.877038 0.332674 0.000000
0.910148 0.332093 0.000000
0.943182 0.331529 0.000000
0.976131 0.330984 0.000000
1.000000 0.330461 0.000000
1.000000 0.329962 0.000000
0.000000 0.377350 0.000000
0.019223 0.377165 0.000000
0.051254 0.376950 0.000000
0.083395 0.376703 0.000000
0.115646 0.376425 0.000000
0.148004 0.376117 0.000000
0.180467 0.375778 0.000000
0.213032 0.375410 0.000000
0.245695 0.375013 0.000000
0.278451 0.374588 0.000000
0.311294 0.374136 0.000000
0.344219 0.373660 0.000000
0.377217 0.373160 0.000000
0.410282 0.372639 0.000000
0.443405 0.372098 0.000000
0.476578 0.371541 0.000000
0.509791 0.370968 0.000000
0.543034 0.370384 0.000000
0.576298 0.369789 0.000000
0.609571 0.369188 0.000000
0.642844 0.368583 0.000000
0.676105 0.367977 0.000000
0.709343 0.367372 0.000000
0.742549 0.366772 0.000000
0.775711 0.366179 0.000000
0.808819 0.365597 0.000000
0.841863 0.365028 0.000000
0.874833 0.364475 0.000000
0.907719 0.363940 0.000000
0.940514 0.363426 0.000000
0.973209 0.362935 0.000000
1.000000 0.362469 0.000000
1.000000 0.362031 0.000000
0.000000 0.409596 0.000000
0.016261 0.409371 0.000000
0.048449 0.409113 0.000000
0.080747 0.408824 0.000000
0.113153 0.408503 0.000000
0.145662 0.408152 0.000000
0.178270 0.407770 0.000000
0.210973 0.407360 0.000000
0.243765 0.406923 0.000000
0.276639 0.406459 0.000000
0.309588 0.405972 0.000000
0.342604 0.405463 0.000000
0.375678 0.404933 0.000000
0.408802 0.404386 0.000000
0.441967 0.403824 0.000000
0.475161 0.403249 0.000000
0.508377 0.402663 0.000000
0.541602 0.402071 0.000000
0.574826 0.401473 0.000000
0.608039 0.400874 0.000000
0.641230 0.400277 0.000000
0.674389 0.399683 0.000000
0.707505 0.399096 0.000000
0.740568 0.398519 0.000000
0.773568 0.397954 0.000000
0.806496 0.397405 0.000000
0.839344 0.396873 0.000000
0.872102 0.396361 0.000000
0.904763 0.395871 0.000000
0.937320 0.395406 0.000000
0.969766 0.394967 0.000000
1.000000 0.394556 0.000000
1.000000 0.394174 0.000000
0.000000 0.441908 0.000000
0.013146 0.441634 0.000000
0.045507 0.441326 0.000000
0.077975 0.440987 0.000000
0.110544 0.440616 0.000000
0.143210 0.440216 0.000000
0.175966 0.439787 0.000000
0.208806 0.439331 0.000000
0.241722 0.438851 0.000000
0.274706 0.438347 0.000000
0.307750 0.437823 0.000000
0.340844 0.437280 0.000000
0.373980 0.436721 0.000000
0.407146 0.436148 0.000000
0.440333 0.435565 0.000000
0.473530 0.434974 0.000000
0.506727 0.434378 0.000000
0.539913 0.433780 0.000000
0.573078 0.433182 0.000000
0.606212 0.432588 0.000000
0.639303 0.432000 0.000000
0.672343 0.431421 0.000000
0.705322 0.430854 0.000000
0.738230 0.430302 0.000000
0.771060 0.429766 0.000000
0.803803 0.429250 0.000000
0.836452 0.428755 0.000000
0.869000 0.428283 0.000000
0.901441 0.427837 0.000000
0.933771 0.427418 0.000000
0.965985 0.427027 0.000000
0.998079 0.426665 0.000000
1.000000 0.426334 0.000000
0.000000 0.474236 0.000000
0.010009 0.473903 0.000000
0.042556 0.473538 0.000000
0.075202 0.473141 0.000000
0.107940 0.472715 0.000000
0.140765 0.472260 0.000000
0.173667 0.471780 0.000000
0.206640 0.471276 0.000000
0.239673 0.470750 0.000000
0.272757 0.470204 0.000000
0.305884 0.469642 0.000000
0.339042 0.469066 0.000000
0.372221 0.468478 0.000000
0.405412 0.467882 0.000000
0.438603 0.467281 0.000000
0.471784 0.466676 0.000000
0.504944 0.466072 0.000000
0.538073 0.465470 0.000000
0.571162 0.464875 0.000000
0.604200 0.464288 0.000000
0.637179 0.463712 0.000000
0.670089 0.463150 0.000000
0.702922 0.462604 0.000000
0.735670 0.462077 0.000000
0.768327 0.461571 0.000000
0.800887 0.461088 0.000000
0.833343 0.460628 0.000000
0.865691 0.460195 0.000000
0.897926 0.459789 0.000000
0.930047 0.459412 0.000000
0.962050 0.459064 0.000000
0.993933 0.458747 0.000000
1.000000 0.458460 0.000000
0.000000 0.506521 0.000000
0.006996 0.506121 0.000000
0.039738 0.505691 0.000000
0.072567 0.505231 0.000000
0.105476 0.504744 0.000000
0.138457 0.504232 0.000000
0.171500 0.503698 0.000000
0.204596 0.503143 0.000000
0.237735 0.502571 0.000000
0.270906 0.501984 0.000000
0.304100 0.501385 0.000000
0.337305 0.500777 0.000000
0.370511 0.500162 0.000000
0.403707 0.499545 0.000000
0.436884 0.498927 0.000000
0.470031 0.498312 0.000000
0.503137 0.497703 0.000000
0.536194 0.497101 0.000000
0.569192 0.496511 0.000000
0.602124 0.495933 0.000000
0.634980 0.495372 0.000000
0.667753 0.494829 0.000000
0.700437 0.494306 0.000000
0.733026 0.493805 0.000000
0.765514 0.493328 0.000000
0.797897 0.492876 0.000000
0.830172 0.492451 0.000000
0.862335 0.492054 0.000000
0.894384 0.491685 0.000000
0.926318 0.491346 0.000000
0.958136 0.491037 0.000000
0.989839 0.490758 0.000000
1.000000 0.490509 0.000000
0.000000 0.538699 0.000000
0.004264 0.538227 0.000000
0.037202 0.537726 0.000000
0.070213 0.537199 0.000000
0.103288 0.536649 0.000000
0.136417 0.536078 0.000000
0.169589 0.535489 0.000000
0.202795 0.534884 0.000000
0.236024 0.534267 0.000000
0.269265 0.533640 0.000000
0.302507 0.533007 0.000000
0.335740 0.532370 0.000000
0.368954 0.531733 0.000000
0.402137 0.531098 0.000000
0.435281 0.530468 0.000000
0.468376 0.529846 0.000000
0.501413 0.529235 0.000000
0.534384 0.528638 0.000000
0.567281 0.528055 0.000000
0.600096 0.527491 0.000000
0.632824 0.526946 0.000000
0.665458 0.526424 0.000000
0.697994 0.525925 0.000000
0.730427 0.525450 0.000000
0.762755 0.525003 0.000000
0.794973 0.524582 0.000000
0.827081 0.524189 0.000000
0.859077 0.523826 0.000000
0.890961 0.523492 0.000000
0.922733 0.523187 0.000000
0.954395 0.522911 0.000000
0.985948 0.522665 0.000000
1.000000 0.522449 0.000000
0.000000 0.570708 0.000000
0.001965 0.570159 0.000000
0.035093 0.569586 0.000000
0.068277 0.568992 0.000000
0.101505 0.568379 0.000000
0.134767 0.567749 0.000000
0.168052 0.567107 0.000000
0.201349 0.566456 0.000000
0.234647 0.565797 0.000000
0.267936 0.565135 0.000000
0.301205 0.564472 0.000000
0.334445 0.563812 0.000000
0.367644 0.563156 0.000000
0.400795 0.562509 0.000000
0.433888 0.561873 0.000000
0.466915 0.561249 0.000000
0.499868 0.560642 0.000000
0.532741 0.560052 0.000000
0.565526 0.559482 0.000000
0.598220 0.558934 0.000000
0.630816 0.558409 0.000000
0.663312 0.557910 0.000000
0.695703 0.557436 0.000000
0.727988 0.556989 0.000000
0.760164 0.556571 0.000000
0.792231 0.556180 0.000000
0.824189 0.555819 0.000000
0.856038 0.555487 0.000000
0.887779 0.555184 0.000000
0.919415 0.554910 0.000000
0.950947 0.554665 0.000000
0.982380 0.554447 0.000000
1.000000 0.554257 0.000000
0.000000 0.602491 0.000000
0.000234 0.601867 0.000000
0.033538 0.601223 0.000000
0.066876 0.600562 0.000000
0.100237 0.599889 0.000000
0.133610 0.599206 0.000000
0.166983 0.598517 0.000000
0.200346 0.597824 0.000000
0.233689 0.597130 0.000000
0.267001 0.596439 0.000000
0.300273 0.595754 0.000000
0.333495 0.595076 0.000000
0.366658 0.594410 0.000000
0.399755 0.593758 0.000000
0.432779 0.593121 0.000000
0.465721 0.592502 0.000000
0.498577 0.591904 0.000000
0.531341 0.591327 0.000000
0.564008 0.590775 0.000000
0.596576 0.590247 0.000000
0.629040 0.589745 0.000000
0.661398 0.589271 0.000000
0.693650 0.588824 0.000000
0.725795 0.588406 0.000000
0.757832 0.588017 0.000000
0.789762 0.587657 0.000000
0.821587 0.587326 0.000000
0.853308 0.587024 0.000000
0.884928 0.586750 0.000000
0.916451 0.586504 0.000000
0.947879 0.586285 0.000000
0.979216 0.586093 0.000000
1.000000 0.585926 0.000000
0.000000 0.634004 0.000000
0.000000 0.633307 0.000000
0.032633 0.632597 0.000000
0.066100 0.631877 0.000000
0.099565 0.631151 0.000000
0.133019 0.630422 0.000000
0.166451 0.629693 0.000000
0.199851 0.628967 0.000000
0.233209 0.628247 0.000000
0.266515 0.627536 0.000000
0.299762 0.626837 0.000000
0.332941 0.626152 0.000000
0.366045 0.625483 0.000000
0.399068 0.624833 0.000000
0.432003 0.624204 0.000000
0.464846 0.623597 0.000000
0.497592 0.623014 0.000000
0.530238 0.622457 0.000000
0.562782 0.621926 0.000000
0.595220 0.621423 0.000000
0.627552 0.620948 0.000000
0.659777 0.620502 0.000000
0.691896 0.620085 0.000000
0.723909 0.619697 0.000000
0.755819 0.619338 0.000000
0.787626 0.619008 0.000000
0.819334 0.618707 0.000000
0.850945 0.618433 0.000000
0.882464 0.618187 0.000000
0.913894 0.617967 0.000000
0.945239 0.617772 0.000000
0.976503 0.617602 0.000000
1.000000 0.617455 0.000000
0.000000 0.665215 0.000000
0.000000 0.664454 0.000000
0.032439 0.663687 0.000000
0.065998 0.662918 0.000000
0.099533 0.662149 0.000000
0.133033 0.661385 0.000000
0.166489 0.660627 0.000000
0.199891 0.659879 0.000000
0.233231 0.659144 0.000000
0.266502 0.658424 0.000000
0.299695 0.657721 0.000000
0.332806 0.657038 0.000000
0.365827 0.656376 0.000000
0.398755 0.655738 0.000000
0.431585 0.655124 0.000000
0.464314 0.654537 0.000000
0.496940 0.653977 0.000000
0.529460 0.653445 0.000000
0.561874 0.652942 0.000000
0.594182 0.652468 0.000000
0.626383 0.652023 0.000000
0.658479 0.651608 0.000000
0.690472 0.651223 0.000000
0.722364 0.650866 0.000000
0.754157 0.650538 0.000000
0.785854 0.650239 0.000000
0.817460 0.649966 0.000000
0.848977 0.649721 0.000000
0.880411 0.649501 0.000000
0.911766 0.649305 0.000000
0.943045 0.649133 0.000000
0.974255 0.648983 0.000000
1.000000 0.648854 0.000000
0.000000 0.696111 0.000000
0.000000 0.695298 0.000000
0.032972 0.694487 0.000000
0.066582 0.693681 0.000000
0.100145 0.692883 0.000000
0.133651 0.692097 0.000000
0.167093 0.691324 0.000000
0.200461 0.690567 0.000000
0.233750 0.689829 0.000000
0.266953 0.689112 0.000000
0.300064 0.688417 0.000000
0.333080 0.687747 0.000000
0.365997 0.687103 0.000000
0.398811 0.686485 0.000000
0.431520 0.685896 0.000000
0.464122 0.685336 0.000000
0.496618 0.684805 0.000000
0.529007 0.684304 0.000000
0.561289 0.683833 0.000000
0.593466 0.683393 0.000000
0.625539 0.682982 0.000000
0.657511 0.682601 0.000000
0.689385 0.682249 0.000000
0.721163 0.681925 0.000000
0.752851 0.681629 0.000000
0.784450 0.681360 0.000000
0.815966 0.681117 0.000000
0.847404 0.680898 0.000000
0.878766 0.680703 0.000000
0.910060 0.680530 0.000000
0.941288 0.680379 0.000000
0.972457 0.680248 0.000000
1.000000 0.680135 0.000000
0.000000 0.726698 0.000000
0.000528 0.725849 0.000000
0.034204 0.725009 0.000000
0.067820 0.724182 0.000000
0.101367 0.723371 0.000000
0.134837 0.722577 0.000000
0.168224 0.721803 0.000000
0.201522 0.721052 0.000000
0.234725 0.720324 0.000000
0.267830 0.719623 0.000000
0.300833 0.718948 0.000000
0.333731 0.718302 0.000000
0.366522 0.717684 0.000000
0.399205 0.717097 0.000000
0.431780 0.716540 0.000000
0.464246 0.716014 0.000000
0.496605 0.715519 0.000000
0.528858 0.715055 0.000000
0.561007 0.714621 0.000000
0.593054 0.714217 0.000000
0.625003 0.713843 0.000000
0.656856 0.713498 0.000000
0.688618 0.713181 0.000000
0.720292 0.712891 0.000000
0.751883 0.712627 0.000000
0.783395 0.712389 0.000000
0.814833 0.712174 0.000000
0.846201 0.711982 0.000000
0.877505 0.711811 0.000000
0.908748 0.711660 0.000000
0.939936 0.711529 0.000000
0.971073 0.711415 0.000000
1.000000 0.711317 0.000000
0.000000 0.756999 0.000000
0.002415 0.756131 0.000000
0.036070 0.755281 0.000000
0.069643 0.754451 0.000000
0.103129 0.753642 0.000000
0.136521 0.752857 0.000000
0.169815 0.752098 0.000000
0.203007 0.751366 0.000000
0.236094 0.750662 0.000000
0.269073 0.749988 0.000000
0.301942 0.749345 0.000000
0.334702 0.748732 0.000000
0.367351 0.748152 0.000000
0.399890 0.747603 0.000000
0.432320 0.747085 0.000000
0.464643 0.746600 0.000000
0.496861 0.746145 0.000000
0.528976 0.745722 0.000000
0.560992 0.745329 0.000000
0.592913 0.744965 0.000000
0.624742 0.744629 0.000000
0.656482 0.744322 0.000000
0.688140 0.744040 0.000000
0.719718 0.743784 0.000000
0.751222 0.743553 0.000000
0.782656 0.743344 0.000000
0.814025 0.743157 0.000000
0.845333 0.742990 0.000000
0.876586 0.742843 0.000000
0.907788 0.742713 0.000000
0.938943 0.742600 0.000000
0.970056 0.742502 0.000000
1.000000 0.742418 0.000000
0.000000 0.787053 0.000000
0.004885 0.786186 0.000000
0.038467 0.785344 0.000000
0.071951 0.784527 0.000000
0.105333 0.783737 0.000000
0.138608 0.782977 0.000000
0.171774 0.782247 0.000000
0.204829 0.781548 0.000000
0.237772 0.780880 0.000000
0.270601 0.780245 0.000000
0.303318 0.779643 0.000000
0.335923 0.779074 0.000000
0.368417 0.778537 0.000000
0.400802 0.778033 0.000000
0.433081 0.777561 0.000000
0.465257 0.777121 0.000000
0.497333 0.776711 0.000000
0.529312 0.776332 0.000000
0.561199 0.775981 0.000000
0.592997 0.775658 0.000000
0.624712 0.775363 0.000000
0.656347 0.775093 0.000000
0.687907 0.774847 0.000000
0.719398 0.774625 0.000000
0.750823 0.774424 0.000000
0.782187 0.774245 0.000000
0.813495 0.774084 0.000000
0.844752 0.773942 0.000000
0.875962 0.773817 0.000000
0.907129 0.773706 0.000000
0.938258 0.773611 0.000000
0.969351 0.773528 0.000000
1.000000 0.773457 0.000000
0.000000 0.816911 0.000000
0.007810 0.816064 0.000000
0.041273 0.815247 0.000000
0.074625 0.814460 0.000000
0.107864 0.813706 0.000000
0.140988 0.812984 0.000000
0.173996 0.812296 0.000000
0.206889 0.811641 0.000000
0.239665 0.811021 0.000000
0.272328 0.810434 0.000000
0.304877 0.809882 0.000000
0.337317 0.809362 0.000000
0.369648 0.808876 0.000000
0.401875 0.808422 0.000000
0.434001 0.807999 0.000000
0.466030 0.807607 0.000000
0.497965 0.807244 0.000000
0.529812 0.806910 0.000000
0.561574 0.806603 0.000000
0.593257 0.806322 0.000000
0.624864 0.806065 0.000000
0.656401 0.805833 0.000000
0.687873 0.805622 0.000000
0.719284 0.805432 0.000000
0.750638 0.805262 0.000000
0.781941 0.805110 0.000000
0.813196 0.804975 0.000000
0.844408 0.804855 0.000000
