assets/base_profile.cube
TITLE "ProPhoto Linear Mature Base: MidSat+HueRot+Split"
LUT_3D_SIZE 5
0.000000 0.000000 0.010000
0.234404 0.000986 0.012686
0.495229 0.000000 0.008119
0.758641 0.000000 0.001882
1.000000 0.000000 0.000000
0.000000 0.249647 0.000000
0.250854 0.248236 0.000000
0.511763 0.245069 0.000000
0.778499 0.240267 0.000000
1.000000 0.234740 0.000000
0.000000 0.506521 0.000000
0.237735 0.502571 0.000000
0.503137 0.497703 0.000000
0.765514 0.493328 0.000000
1.000000 0.490509 0.000000
0.000000 0.756999 0.000000
0.236094 0.750662 0.000000
0.496861 0.746145 0.000000
0.751222 0.743553 0.000000
1.000000 0.742418 0.000000
0.000000 0.995072 0.000000
0.250923 0.992196 0.000000
0.503516 0.990260 0.002245
0.756495 0.990170 0.015476
1.000000 0.992114 0.030331
0.000000 0.003083 0.249622
0.237576 0.002941 0.258141
0.498898 0.000262 0.258019
0.761491 0.000000 0.255859
1.000000 0.000000 0.256404
0.000000 0.251934 0.250121
0.250000 0.250000 0.250000
0.511681 0.246268 0.248141
0.778579 0.241113 0.244906
1.000000 0.235679 0.241400
0.000000 0.508081 0.237187
0.236110 0.503674 0.233931
0.501515 0.498805 0.232428
0.763059 0.494840 0.233581
1.000000 0.492618 0.237337
0.000000 0.757346 0.228412
0.237218 0.751521 0.233028
0.497019 0.747643 0.238918
0.750676 0.745582 0.244884
1.000000 0.744778 0.250094
0.000000 0.996419 0.240919
0.251889 0.994097 0.245843
0.505373 0.992341 0.253301
0.759042 0.993197 0.264108
1.000000 0.995131 0.275341
0.000000 0.005904 0.493121
0.240972 0.004582 0.508096
0.501813 0.001954 0.509953
0.763751 0.000000 0.512777
1.000000 0.000000 0.516950
0.000000 0.254075 0.508295
0.248932 0.251580 0.511865
0.511324 0.247322 0.513475
0.778205 0.241941 0.512790
1.000000 0.236766 0.510333
0.000000 0.509447 0.505636
0.234692 0.504721 0.502816
0.500000 0.500000 0.500000
0.760704 0.496535 0.498399
1.000000 0.494910 0.498578
0.000000 0.757819 0.492019
0.238497 0.752583 0.492935
0.497292 0.749329 0.495239
0.750277 0.747739 0.498219
0.999686 0.747202 0.501270
0.000000 0.997981 0.493383
0.253299 0.995938 0.496742
0.508175 0.994818 0.502583
0.761628 0.996335 0.510447
1.000000 0.998003 0.518264
0.000000 0.008334 0.742369
0.244058 0.006122 0.761208
0.504262 0.003456 0.764403
0.766002 0.000000 0.772251
1.000000 0.000000 0.780230
0.000000 0.256050 0.769132
0.247655 0.252980 0.776409
0.510690 0.248265 0.780945
0.777386 0.242804 0.781741
1.000000 0.238053 0.778983
0.000000 0.510657 0.774683
0.233529 0.505762 0.770932
0.498636 0.501325 0.765645
0.758500 0.498420 0.760619
1.000000 0.497368 0.757116
0.000000 0.758456 0.752928
0.239880 0.753852 0.750225
0.497648 0.751187 0.749398
0.750000 0.750000 0.750000
0.999005 0.749726 0.751485
0.000551 0.999732 0.744509
0.255262 0.997735 0.746400
0.511614 0.997606 0.749783
0.763951 0.999459 0.754571
1.000000 1.000000 0.759587
0.000000 0.010358 0.996927
0.246461 0.007859 1.000000
0.505892 0.004748 1.000000
0.768193 0.000000 1.000000
1.000000 0.000000 1.000000
0.000000 0.257848 1.000000
0.246182 0.254211 1.000000
0.509789 0.249138 1.000000
0.776149 0.243757 1.000000
1.000000 0.239581 1.000000
0.000000 0.511756 1.000000
0.232659 0.506847 1.000000
0.497457 0.502809 1.000000
0.756487 0.500496 1.000000
1.000000 0.499969 1.000000
0.000000 0.759283 1.000000
0.241319 0.755322 1.000000
0.498058 0.753196 1.000000
0.749820 0.752345 1.000000
0.998285 0.752391 1.000000
0.002063 1.000000 0.994566
0.258222 0.999809 0.994305
0.515369 1.000000 0.994767
0.765691 1.000000 0.996745
1.000000 1.000000 1.000000
