assets/Mature.cube
TITLE "ProPhoto Linear Mature: HueRot+MidSat+Split"
LUT_3D_SIZE 5
0.000000 0.000000 0.011000
0.234912 0.001550 0.012837
0.492393 0.000000 0.011702
0.758483 0.000000 0.008328
1.000000 0.000000 0.004680
0.000000 0.250851 0.000000
0.254826 0.248992 0.000000
0.516336 0.245592 0.000000
0.782812 0.240593 0.000000
1.000000 0.234625 0.000000
0.000000 0.507428 0.000000
0.243413 0.502666 0.000000
0.508818 0.496718 0.000000
0.771171 0.490723 0.000000
1.000000 0.485695 0.000000
0.000000 0.755799 0.000000
0.237641 0.746842 0.000000
0.497643 0.738893 0.000000
0.749304 0.732294 0.000000
0.993234 0.726840 0.000000
0.000000 0.982352 0.000000
0.249279 0.973126 0.000000
0.496275 0.965017 0.000000
0.737122 0.956983 0.006739
0.972505 0.950182 0.019788
0.000000 0.005197 0.206109
0.225209 0.006550 0.243611
0.481777 0.004041 0.254048
0.744539 0.000346 0.257441
1.000000 0.000000 0.258397
0.000000 0.250935 0.249005
0.249717 0.249717 0.249717
0.509088 0.246504 0.249703
0.773702 0.241622 0.248104
1.000000 0.235983 0.245777
0.000000 0.506347 0.237190
0.238845 0.501776 0.234750
0.502210 0.496223 0.233346
0.762098 0.490880 0.233938
1.000000 0.486646 0.236812
0.000000 0.752941 0.224482
0.236160 0.744732 0.228238
0.493638 0.737624 0.233576
0.742986 0.731775 0.239524
0.985014 0.726868 0.245197
0.000000 0.979247 0.231843
0.248623 0.970825 0.237374
0.493231 0.963263 0.241922
0.733316 0.955701 0.249756
0.966561 0.949322 0.258167
0.000000 0.010148 0.404623
0.220829 0.010956 0.464574
0.474828 0.007691 0.489928
0.734122 0.004346 0.499774
0.999719 0.000000 0.507546
0.000000 0.251717 0.494906
0.245046 0.250765 0.501895
0.502468 0.247589 0.506438
0.765169 0.242817 0.508283
1.000000 0.237577 0.507905
0.000000 0.505569 0.499094
0.234656 0.501169 0.497922
0.496051 0.496051 0.496051
0.753544 0.491389 0.494583
1.000000 0.487923 0.494209
0.000000 0.750485 0.484700
0.235025 0.743038 0.484859
0.489997 0.736729 0.486153
0.737090 0.731545 0.488090
0.977266 0.727093 0.490087
0.000000 0.976569 0.479506
0.247950 0.968841 0.481478
0.490713 0.961543 0.483379
0.729754 0.954648 0.487573
0.960889 0.948624 0.491686
0.000000 0.014841 0.606701
0.218633 0.014919 0.683457
0.468232 0.011833 0.719806
0.726150 0.008019 0.737997
0.990104 0.002088 0.753429
0.000000 0.252955 0.737426
0.240670 0.252029 0.750818
0.496309 0.248812 0.760113
0.757065 0.244182 0.765053
1.000000 0.239427 0.765908
0.000000 0.505045 0.757268
0.230865 0.500835 0.756597
0.490341 0.496201 0.753495
0.745505 0.492235 0.749450
0.993599 0.489498 0.745689
0.000000 0.748425 0.738991
0.234186 0.741740 0.735557
0.486671 0.736172 0.733133
0.731567 0.731567 0.731567
0.969935 0.727480 0.730434
0.000467 0.974270 0.722245
0.247243 0.967130 0.721195
0.489016 0.959911 0.720504
0.726408 0.953795 0.720485
0.955460 0.948065 0.720568
0.000000 0.019263 0.812525
0.217427 0.018485 0.903312
0.463419 0.015706 0.947004
0.719335 0.011402 0.974409
0.981936 0.005007 0.997153
0.000000 0.254490 0.977749
0.236495 0.253439 0.997435
0.490495 0.250157 1.000000
0.749287 0.245734 1.000000
1.000000 0.241554 1.000000
0.000000 0.504748 1.000000
0.227487 0.500773 1.000000
0.485078 0.496670 1.000000
0.737977 0.493403 0.998666
0.983868 0.491341 0.991540
0.000000 0.746754 0.987549
0.233589 0.740813 0.980674
0.483615 0.735919 0.974943
0.726369 0.731803 0.970392
0.962967 0.727999 0.966627
0.002266 0.972307 0.960489
0.246490 0.965651 0.956889
0.488112 0.958850 0.952665
0.723257 0.953113 0.948740
0.950250 0.947625 0.945000
