assets/Mature.cube
TITLE "ProPhoto Linear Mature: HueRot+MidSat+Split"
LUT_3D_SIZE 33
0.000000 0.000000 0.011000
0.019161 0.000351 0.011378
0.049482 0.000658 0.011715
0.079965 0.000921 0.012010
0.110614 0.001140 0.012263
0.141429 0.001313 0.012473
0.172416 0.001440 0.012639
0.203575 0.001519 0.012761
0.234912 0.001550 0.012837
0.266429 0.001533 0.012868
0.298129 0.001465 0.012851
0.330016 0.001346 0.012786
0.362094 0.001175 0.012672
0.394367 0.000951 0.012507
0.426838 0.000673 0.012292
0.459512 0.000339 0.012024
0.492393 0.000000 0.011702
0.525485 0.000000 0.011327
0.558792 0.000000 0.010895
0.592317 0.000000 0.010407
0.626066 0.000000 0.009861
0.660041 0.000000 0.009256
0.692834 0.000000 0.008953
0.725609 0.000000 0.008653
0.758483 0.000000 0.008328
0.791459 0.000000 0.007974
0.824540 0.000000 0.007593
0.857728 0.000000 0.007183
0.891026 0.000000 0.006743
0.924436 0.000000 0.006274
0.957958 0.000000 0.005773
0.991594 0.000000 0.005242
1.000000 0.000000 0.004680
0.000000 0.030714 0.010889
0.022093 0.030974 0.011124
0.052715 0.031207 0.011315
0.083475 0.031402 0.011462
0.114388 0.031557 0.011563
0.145462 0.031668 0.011619
0.176706 0.031734 0.011628
0.208125 0.031752 0.011589
0.239723 0.031721 0.011502
0.271506 0.031640 0.011365
0.303477 0.031508 0.011178
0.335642 0.031323 0.010939
0.368004 0.031084 0.010647
0.400567 0.030790 0.010301
0.433336 0.030440 0.009900
0.466315 0.030032 0.009443
0.499509 0.029566 0.008929
0.532920 0.029040 0.008357
0.566212 0.028543 0.007835
0.598790 0.028233 0.007550
0.631458 0.027898 0.007239
0.664220 0.027537 0.006902
0.697080 0.027148 0.006536
0.730040 0.026730 0.006143
0.763104 0.026283 0.005720
0.796272 0.025807 0.005267
0.829548 0.025299 0.004785
0.862933 0.024761 0.004271
0.896427 0.024191 0.003726
0.930031 0.023589 0.003151
0.963671 0.022955 0.002619
0.997163 0.022290 0.002312
1.000000 0.021593 0.001976
0.000000 0.061627 0.010267
0.024399 0.061835 0.010349
0.055269 0.062009 0.010385
0.086285 0.062144 0.010373
0.117459 0.062237 0.010313
0.148798 0.062286 0.010204
0.180310 0.062287 0.010045
0.212001 0.062241 0.009834
0.243876 0.062144 0.009572
0.275940 0.061996 0.009256
0.308198 0.061795 0.008885
0.340656 0.061540 0.008460
0.373317 0.061229 0.007977
0.406186 0.060861 0.007437
0.439267 0.060435 0.006838
0.471964 0.060103 0.006436
0.504445 0.059823 0.006140
0.537011 0.059519 0.005818
0.569667 0.059190 0.005469
0.602414 0.058835 0.005091
0.635257 0.058453 0.004685
0.668198 0.058043 0.004250
0.701239 0.057605 0.003784
0.734384 0.057137 0.003288
0.767633 0.056639 0.002761
0.800987 0.056112 0.002203
0.834447 0.055553 0.001614
0.867819 0.054964 0.001188
0.901161 0.054344 0.000869
0.934607 0.053693 0.000519
0.968155 0.053012 0.000139
1.000000 0.052301 0.000000
1.000000 0.051561 0.000000
0.000000 0.092751 0.009104
0.026166 0.092910 0.009023
0.057270 0.093031 0.008892
0.088532 0.093109 0.008710
0.119958 0.093143 0.008477
0.151558 0.093130 0.008190
0.183337 0.093069 0.007850
0.215301 0.092958 0.007456
0.247455 0.092795 0.007005
0.279806 0.092579 0.006497
0.312357 0.092308 0.005930
0.345105 0.091983 0.005310
0.377419 0.091752 0.005029
0.409808 0.091500 0.004723
0.442276 0.091226 0.004389
0.474827 0.090928 0.004028
0.507465 0.090606 0.003638
0.540193 0.090259 0.003220
0.573014 0.089886 0.002772
0.605931 0.089485 0.002293
0.638946 0.089057 0.001784
0.672061 0.088599 0.001243
0.705277 0.088113 0.000672
0.738596 0.087597 0.000069
0.771701 0.087052 0.000000
0.804893 0.086477 0.000000
0.838187 0.085871 0.000000
0.871581 0.085237 0.000000
0.905072 0.084573 0.000000
0.938659 0.083881 0.000000
0.972337 0.083161 0.000000
1.000000 0.082415 0.000000
1.000000 0.081642 0.000000
0.000000 0.124099 0.007361
0.027368 0.124210 0.007105
0.058704 0.124277 0.006795
0.090208 0.124300 0.006431
0.121886 0.124276 0.006012
0.153745 0.124203 0.005536
0.185792 0.124080 0.005002
0.218031 0.123904 0.004409
0.250350 0.123694 0.003908
0.282583 0.123488 0.003616
0.314884 0.123262 0.003298
0.347257 0.123017 0.002953
0.379708 0.122750 0.002580
0.412239 0.122461 0.002178
0.444854 0.122148 0.001747
0.477557 0.121810 0.001286
0.510351 0.121447 0.000794
0.543239 0.121057 0.000272
0.576221 0.120640 0.000000
0.609301 0.120194 0.000000
0.642374 0.119721 0.000000
0.675320 0.119219 0.000000
0.708364 0.118688 0.000000
0.741507 0.118128 0.000000
0.774747 0.117539 0.000000
0.808083 0.116922 0.000000
0.841512 0.116277 0.000000
0.875031 0.115604 0.000000
0.908636 0.114905 0.000000
0.942322 0.114180 0.000000
0.976084 0.113432 0.000000
1.000000 0.112660 0.000000
1.000000 0.111867 0.000000
0.000000 0.155685 0.004998
0.027966 0.155746 0.004554
0.059536 0.155761 0.004052
0.091284 0.155729 0.003493
0.123215 0.155647 0.002874
0.155308 0.155491 0.002498
0.187463 0.155308 0.002195
0.219679 0.155109 0.001866
0.251961 0.154892 0.001510
0.284312 0.154655 0.001125
0.316739 0.154398 0.000711
0.349244 0.154118 0.000267
0.381831 0.153816 0.000000
0.414503 0.153489 0.000000
0.447264 0.153137 0.000000
0.480116 0.152759 0.000000
0.513061 0.152355 0.000000
0.545874 0.151923 0.000000
0.578677 0.151464 0.000000
0.611575 0.150976 0.000000
0.644570 0.150461 0.000000
0.677658 0.149918 0.000000
0.710841 0.149346 0.000000
0.744114 0.148747 0.000000
0.777476 0.148121 0.000000
0.810923 0.147469 0.000000
0.844451 0.146791 0.000000
0.878055 0.146089 0.000000
0.911729 0.145363 0.000000
0.945468 0.144616 0.000000
0.979264 0.143849 0.000000
1.000000 0.143064 0.000000
1.000000 0.142263 0.000000
0.000000 0.187524 0.001970
0.027949 0.187520 0.001368
0.059984 0.187373 0.001081
0.092065 0.187213 0.000768
0.124199 0.187038 0.000427
0.156391 0.186848 0.000059
0.188646 0.186641 0.000000
0.220970 0.186415 0.000000
0.253366 0.186168 0.000000
0.285838 0.185900 0.000000
0.318391 0.185610 0.000000
0.351027 0.185296 0.000000
0.383749 0.184957 0.000000
0.416545 0.184593 0.000000
0.449114 0.184203 0.000000
0.481776 0.183786 0.000000
0.514530 0.183342 0.000000
0.547377 0.182871 0.000000
0.580316 0.182372 0.000000
0.613347 0.181845 0.000000
0.646467 0.181292 0.000000
0.679675 0.180712 0.000000
0.712967 0.180105 0.000000
0.746339 0.179473 0.000000
0.779788 0.178816 0.000000
0.813309 0.178136 0.000000
0.846894 0.177434 0.000000
0.880539 0.176711 0.000000
0.914236 0.175969 0.000000
0.947977 0.175210 0.000000
0.981753 0.174436 0.000000
1.000000 0.173648 0.000000
1.000000 0.172850 0.000000
0.000000 0.219198 0.000000
0.028448 0.219048 0.000000
0.060553 0.218885 0.000000
0.092713 0.218706 0.000000
0.124935 0.218511 0.000000
0.157223 0.218297 0.000000
0.189582 0.218064 0.000000
0.222016 0.217809 0.000000
0.254528 0.217533 0.000000
0.287122 0.217233 0.000000
0.319664 0.216909 0.000000
0.352097 0.216559 0.000000
0.384619 0.216184 0.000000
0.417230 0.215783 0.000000
0.449932 0.215355 0.000000
0.482723 0.214901 0.000000
0.515604 0.214419 0.000000
0.548574 0.213910 0.000000
0.581630 0.213375 0.000000
0.614770 0.212813 0.000000
0.647991 0.212226 0.000000
0.681288 0.211613 0.000000
0.714658 0.210977 0.000000
0.748095 0.210318 0.000000
0.781593 0.209638 0.000000
0.815145 0.208938 0.000000
0.848744 0.208219 0.000000
0.882383 0.207485 0.000000
0.916053 0.206735 0.000000
0.949745 0.205974 0.000000
0.983449 0.205202 0.000000
1.000000 0.204423 0.000000
1.000000 0.203638 0.000000
0.000000 0.250851 0.000000
0.028639 0.250686 0.000000
0.060820 0.250504 0.000000
0.093067 0.250305 0.000000
0.125383 0.250086 0.000000
0.157772 0.249847 0.000000
0.190238 0.249585 0.000000
0.222528 0.249301 0.000000
0.254826 0.248992 0.000000
0.287209 0.248659 0.000000
0.319679 0.248300 0.000000
0.352236 0.247915 0.000000
0.384882 0.247504 0.000000
0.417616 0.247066 0.000000
0.450438 0.246601 0.000000
0.483345 0.246109 0.000000
0.516336 0.245592 0.000000
0.549408 0.245048 0.000000
0.582558 0.244479 0.000000
0.615782 0.243886 0.000000
0.649074 0.243269 0.000000
0.682429 0.242630 0.000000
0.715842 0.241970 0.000000
0.749305 0.241290 0.000000
0.782812 0.240593 0.000000
0.816354 0.239880 0.000000
0.849922 0.239153 0.000000
0.883508 0.238414 0.000000
0.917103 0.237665 0.000000
0.950697 0.236910 0.000000
0.984279 0.236149 0.000000
1.000000 0.235387 0.000000
1.000000 0.234625 0.000000
0.000000 0.282623 0.000000
0.028493 0.282440 0.000000
0.060760 0.282237 0.000000
0.093054 0.282013 0.000000
0.125139 0.281768 0.000000
0.157303 0.281500 0.000000
0.189549 0.281208 0.000000
0.221879 0.280891 0.000000
0.254294 0.280548 0.000000
0.286796 0.280180 0.000000
0.319385 0.279785 0.000000
0.352061 0.279363 0.000000
0.384822 0.278915 0.000000
0.417667 0.278440 0.000000
0.450595 0.277939 0.000000
0.483601 0.277412 0.000000
0.516682 0.276860 0.000000
0.549834 0.276284 0.000000
0.583052 0.275684 0.000000
0.616331 0.275063 0.000000
0.649664 0.274420 0.000000
0.683044 0.273759 0.000000
0.716464 0.273080 0.000000
0.749916 0.272386 0.000000
0.783391 0.271677 0.000000
0.816881 0.270958 0.000000
0.850376 0.270229 0.000000
0.883867 0.269493 0.000000
0.917343 0.268752 0.000000
0.950794 0.268009 0.000000
0.984210 0.267267 0.000000
1.000000 0.266528 0.000000
1.000000 0.265794 0.000000
0.000000 0.314517 0.000000
0.027499 0.314311 0.000000
0.059530 0.314082 0.000000
0.091640 0.313831 0.000000
0.123832 0.313555 0.000000
0.156107 0.313254 0.000000
0.188467 0.312928 0.000000
0.220914 0.312575 0.000000
0.253446 0.312196 0.000000
0.286065 0.311790 0.000000
0.318768 0.311357 0.000000
0.351553 0.310897 0.000000
0.384420 0.310411 0.000000
0.417363 0.309900 0.000000
0.450380 0.309362 0.000000
0.483466 0.308801 0.000000
0.516616 0.308216 0.000000
0.549824 0.307609 0.000000
0.583084 0.306982 0.000000
0.616389 0.306335 0.000000
0.649731 0.305671 0.000000
0.683102 0.304991 0.000000
0.716495 0.304298 0.000000
0.749899 0.303593 0.000000
0.783305 0.302879 0.000000
0.816705 0.302158 0.000000
0.850088 0.301432 0.000000
0.883444 0.300704 0.000000
0.916763 0.299976 0.000000
0.950034 0.299252 0.000000
0.983248 0.298532 0.000000
1.000000 0.297820 0.000000
1.000000 0.297119 0.000000
0.000000 0.346527 0.000000
0.025540 0.346292 0.000000
0.057678 0.346033 0.000000
0.089899 0.345748 0.000000
0.122205 0.345437 0.000000
0.154597 0.345099 0.000000
0.187076 0.344734 0.000000
0.219640 0.344342 0.000000
0.252288 0.343923 0.000000
0.285018 0.343476 0.000000
0.317829 0.343003 0.000000
0.350715 0.342503 0.000000
0.383674 0.341978 0.000000
0.416701 0.341429 0.000000
0.449791 0.340856 0.000000
0.482937 0.340260 0.000000
0.516133 0.339643 0.000000
0.549372 0.339008 0.000000
0.582647 0.338354 0.000000
0.615949 0.337685 0.000000
0.649270 0.337002 0.000000
0.682602 0.336307 0.000000
0.715933 0.335602 0.000000
0.749256 0.334891 0.000000
0.782561 0.334174 0.000000
0.815837 0.333455 0.000000
0.849074 0.332736 0.000000
0.882263 0.332020 0.000000
0.915394 0.331308 0.000000
0.948457 0.330604 0.000000
0.981441 0.329909 0.000000
1.000000 0.329227 0.000000
1.000000 0.328559 0.000000
0.000000 0.378639 0.000000
0.023262 0.378368 0.000000
0.055517 0.378071 0.000000
0.087858 0.377746 0.000000
0.120287 0.377394 0.000000
0.152802 0.377014 0.000000
0.185401 0.376605 0.000000
0.218082 0.376169 0.000000
0.250844 0.375706 0.000000
0.283681 0.375215 0.000000
0.316591 0.374699 0.000000
0.349568 0.374157 0.000000
0.382606 0.373592 0.000000
0.415701 0.373003 0.000000
0.448845 0.372393 0.000000
0.482030 0.371764 0.000000
0.515250 0.371116 0.000000
0.548497 0.370452 0.000000
0.581760 0.369774 0.000000
0.615033 0.369084 0.000000
0.648304 0.368384 0.000000
0.681566 0.367676 0.000000
0.714808 0.366963 0.000000
0.748021 0.366247 0.000000
0.781195 0.365531 0.000000
0.814319 0.364817 0.000000
0.847385 0.364106 0.000000
0.880383 0.363403 0.000000
0.913303 0.362709 0.000000
0.946136 0.362026 0.000000
0.978874 0.361356 0.000000
1.000000 0.360702 0.000000
1.000000 0.360066 0.000000
0.000000 0.410825 0.000000
0.020713 0.410512 0.000000
0.053098 0.410169 0.000000
0.085570 0.409797 0.000000
0.118128 0.409397 0.000000
0.150769 0.408968 0.000000
0.183491 0.408511 0.000000
0.216289 0.408026 0.000000
0.249160 0.407514 0.000000
0.282098 0.406976 0.000000
0.315098 0.406413 0.000000
0.348153 0.405827 0.000000
0.381257 0.405219 0.000000
0.414403 0.404591 0.000000
0.447582 0.403944 0.000000
0.480787 0.403280 0.000000
0.514009 0.402601 0.000000
0.547238 0.401910 0.000000
0.580467 0.401208 0.000000
0.613684 0.400498 0.000000
0.646881 0.399783 0.000000
0.680049 0.399064 0.000000
0.713176 0.398344 0.000000
0.746255 0.397625 0.000000
0.779275 0.396910 0.000000
0.812227 0.396200 0.000000
0.845102 0.395500 0.000000
0.877891 0.394809 0.000000
0.910585 0.394132 0.000000
0.943178 0.393469 0.000000
0.975661 0.392823 0.000000
1.000000 0.392196 0.000000
1.000000 0.391588 0.000000
0.000000 0.443051 0.000000
0.017969 0.442685 0.000000
0.050496 0.442289 0.000000
0.083107 0.441863 0.000000
0.115801 0.441407 0.000000
0.148572 0.440923 0.000000
0.181416 0.440411 0.000000
0.214328 0.439872 0.000000
0.247303 0.439308 0.000000
0.280333 0.438719 0.000000
0.313413 0.438107 0.000000
0.346534 0.437474 0.000000
0.379688 0.436822 0.000000
0.412868 0.436152 0.000000
0.446064 0.435467 0.000000
0.479268 0.434768 0.000000
0.512470 0.434059 0.000000
0.545661 0.433341 0.000000
0.578831 0.432616 0.000000
0.611971 0.431887 0.000000
0.645072 0.431157 0.000000
0.678124 0.430427 0.000000
0.711117 0.429700 0.000000
0.744042 0.428979 0.000000
0.776892 0.428265 0.000000
0.809656 0.427561 0.000000
0.842328 0.426869 0.000000
0.874898 0.426191 0.000000
0.907361 0.425528 0.000000
0.939709 0.424883 0.000000
0.971936 0.424257 0.000000
1.000000 0.423652 0.000000
1.000000 0.423069 0.000000
0.000000 0.475271 0.000000
0.015130 0.474843 0.000000
0.047808 0.474384 0.000000
0.080565 0.473896 0.000000
0.113397 0.473378 0.000000
0.146299 0.472833 0.000000
0.179264 0.472261 0.000000
0.212285 0.471663 0.000000
0.245356 0.471042 0.000000
0.278468 0.470398 0.000000
0.311615 0.469735 0.000000
0.344787 0.469053 0.000000
0.377975 0.468355 0.000000
0.411171 0.467643 0.000000
0.444365 0.466919 0.000000
0.477548 0.466186 0.000000
0.510710 0.465446 0.000000
0.543842 0.464701 0.000000
0.576935 0.463954 0.000000
0.609979 0.463207 0.000000
0.642964 0.462462 0.000000
0.675883 0.461722 0.000000
0.708726 0.460989 0.000000
0.741485 0.460264 0.000000
0.774152 0.459551 0.000000
0.806720 0.458851 0.000000
0.839182 0.458166 0.000000
0.871531 0.457498 0.000000
0.903762 0.456848 0.000000
0.935868 0.456217 0.000000
0.967846 0.455607 0.000000
0.999691 0.455019 0.000000
1.000000 0.454455 0.000000
0.000000 0.507428 0.000000
0.012310 0.506930 0.000000
0.045146 0.506401 0.000000
0.078053 0.505843 0.000000
0.111025 0.505257 0.000000
0.144054 0.504645 0.000000
0.177134 0.504008 0.000000
0.210256 0.503348 0.000000
0.243413 0.502666 0.000000
0.276595 0.501966 0.000000
0.309794 0.501249 0.000000
0.343000 0.500517 0.000000
0.376205 0.499772 0.000000
0.409399 0.499018 0.000000
0.442572 0.498256 0.000000
0.475715 0.497488 0.000000
0.508818 0.496718 0.000000
0.541873 0.495947 0.000000
0.574870 0.495178 0.000000
0.607800 0.494413 0.000000
0.640655 0.493654 0.000000
0.673428 0.492904 0.000000
0.706109 0.492164 0.000000
0.738692 0.491436 0.000000
0.771171 0.490723 0.000000
0.803539 0.490025 0.000000
0.835790 0.489345 0.000000
0.867920 0.488684 0.000000
0.899923 0.488042 0.000000
0.931796 0.487422 0.000000
0.963536 0.486823 0.000000
0.995140 0.486248 0.000000
1.000000 0.485695 0.000000
0.000000 0.539465 0.000000
0.009638 0.538888 0.000000
0.042635 0.538282 0.000000
0.075690 0.537649 0.000000
0.108797 0.536989 0.000000
0.141948 0.536306 0.000000
0.175133 0.535600 0.000000
0.208344 0.534875 0.000000
0.241573 0.534131 0.000000
0.274809 0.533373 0.000000
0.308043 0.532601 0.000000
0.341266 0.531819 0.000000
0.374469 0.531028 0.000000
0.407641 0.530232 0.000000
0.440774 0.529432 0.000000
0.473858 0.528631 0.000000
0.506884 0.527832 0.000000
0.539844 0.527036 0.000000
0.572729 0.526246 0.000000
0.605532 0.525463 0.000000
0.638245 0.524691 0.000000
0.670860 0.523930 0.000000
0.703372 0.523183 0.000000
0.735775 0.522452 0.000000
0.768062 0.521737 0.000000
0.800230 0.521040 0.000000
0.832273 0.520362 0.000000
0.864189 0.519705 0.000000
0.895973 0.519069 0.000000
0.927625 0.518455 0.000000
0.959141 0.517863 0.000000
0.990521 0.517294 0.000000
1.000000 0.516748 0.000000
0.000000 0.571319 0.000000
0.007244 0.570657 0.000000
0.040397 0.569969 0.000000
0.073595 0.569255 0.000000
0.106828 0.568519 0.000000
0.140088 0.567761 0.000000
0.173364 0.566986 0.000000
0.206649 0.566194 0.000000
0.239931 0.565389 0.000000
0.273202 0.564573 0.000000
0.306453 0.563747 0.000000
0.339672 0.562916 0.000000
0.372852 0.562081 0.000000
0.405983 0.561244 0.000000
0.439056 0.560408 0.000000
0.472062 0.559576 0.000000
0.504994 0.558749 0.000000
0.537844 0.557930 0.000000
0.570603 0.557120 0.000000
0.603266 0.556321 0.000000
0.635827 0.555536 0.000000
0.668278 0.554766 0.000000
0.700615 0.554012 0.000000
0.732834 0.553275 0.000000
0.764931 0.552558 0.000000
0.796901 0.551860 0.000000
0.828742 0.551182 0.000000
0.860452 0.550526 0.000000
0.892029 0.549892 0.000000
0.923471 0.549279 0.000000
0.954779 0.548690 0.000000
0.985953 0.548122 0.000000
1.000000 0.547577 0.000000
0.000000 0.602929 0.000000
0.005251 0.602179 0.000000
0.038551 0.601405 0.000000
0.071878 0.600609 0.000000
0.105222 0.599795 0.000000
0.138573 0.598964 0.000000
0.171922 0.598119 0.000000
0.205259 0.597262 0.000000
0.238574 0.596397 0.000000
0.271859 0.595524 0.000000
0.305102 0.594648 0.000000
0.338296 0.593770 0.000000
0.371432 0.592893 0.000000
0.404500 0.592019 0.000000
0.437494 0.591151 0.000000
0.470405 0.590290 0.000000
0.503225 0.589438 0.000000
0.535949 0.588597 0.000000
0.568571 0.587770 0.000000
0.601084 0.586957 0.000000
0.633483 0.586160 0.000000
0.665765 0.585380 0.000000
0.697925 0.584619 0.000000
0.729960 0.583877 0.000000
0.761867 0.583156 0.000000
0.793644 0.582455 0.000000
0.825290 0.581776 0.000000
0.856803 0.581118 0.000000
0.888184 0.580482 0.000000
0.919432 0.579868 0.000000
0.950547 0.579275 0.000000
0.981530 0.578704 0.000000
1.000000 0.578155 0.000000
0.000000 0.634242 0.000000
0.003768 0.633402 0.000000
0.037197 0.632542 0.000000
0.070633 0.631666 0.000000
0.104066 0.630775 0.000000
0.137485 0.629873 0.000000
0.170882 0.628961 0.000000
0.204247 0.628042 0.000000
0.237570 0.627120 0.000000
0.270843 0.626196 0.000000
0.304055 0.625273 0.000000
0.337200 0.624353 0.000000
0.370268 0.623438 0.000000
0.403253 0.622531 0.000000
0.436147 0.621633 0.000000
0.468944 0.620747 0.000000
0.501638 0.619874 0.000000
0.534223 0.619015 0.000000
0.566695 0.618172 0.000000
0.599048 0.617347 0.000000
0.631281 0.616539 0.000000
0.663388 0.615751 0.000000
0.695369 0.614983 0.000000
0.727221 0.614236 0.000000
0.758942 0.613510 0.000000
0.790532 0.612805 0.000000
0.821990 0.612121 0.000000
0.853316 0.611460 0.000000
0.884511 0.610819 0.000000
0.915576 0.610199 0.000000
0.946513 0.609600 0.000000
0.977322 0.609022 0.000000
1.000000 0.608463 0.000000
0.000000 0.665212 0.000000
0.002878 0.664284 0.000000
0.036411 0.663342 0.000000
0.069929 0.662388 0.000000
0.103423 0.661425 0.000000
0.136883 0.660456 0.000000
0.170299 0.659483 0.000000
0.203663 0.658508 0.000000
0.236966 0.657535 0.000000
0.270198 0.656565 0.000000
0.303354 0.655601 0.000000
0.336424 0.654644 0.000000
0.369402 0.653697 0.000000
0.402281 0.652762 0.000000
0.435056 0.651840 0.000000
0.467722 0.650932 0.000000
0.500274 0.650041 0.000000
0.532707 0.649168 0.000000
0.565019 0.648312 0.000000
0.597205 0.647476 0.000000
0.629265 0.646660 0.000000
0.661196 0.645865 0.000000
0.692997 0.645090 0.000000
0.724666 0.644337 0.000000
0.756205 0.643606 0.000000
0.787612 0.642895 0.000000
0.818890 0.642206 0.000000
0.850038 0.641537 0.000000
0.881058 0.640889 0.000000
0.911952 0.640261 0.000000
0.942722 0.639652 0.000000
0.973369 0.639062 0.000000
1.000000 0.638489 0.000000
0.000000 0.695805 0.000000
0.002634 0.694796 0.000000
0.036239 0.693777 0.000000
0.069807 0.692752 0.000000
0.103329 0.691724 0.000000
0.136796 0.690695 0.000000
0.170199 0.689668 0.000000
0.203531 0.688645 0.000000
0.236782 0.687627 0.000000
0.269947 0.686618 0.000000
0.303017 0.685620 0.000000
0.335987 0.684633 0.000000
0.368851 0.683660 0.000000
0.401604 0.682702 0.000000
0.434241 0.681761 0.000000
0.466759 0.680838 0.000000
0.499155 0.679933 0.000000
0.531425 0.679048 0.000000
0.563567 0.678183 0.000000
0.595580 0.677338 0.000000
0.627463 0.676515 0.000000
0.659214 0.675713 0.000000
0.690835 0.674933 0.000000
0.722324 0.674174 0.000000
0.753684 0.673435 0.000000
0.784914 0.672718 0.000000
0.816017 0.672021 0.000000
0.846995 0.671344 0.000000
0.877848 0.670685 0.000000
0.908580 0.670046 0.000000
0.939194 0.669423 0.000000
0.969690 0.668818 0.000000
1.000000 0.668228 0.000000
0.000000 0.726003 0.000000
0.003057 0.724919 0.000000
0.036695 0.723833 0.000000
0.070275 0.722747 0.000000
0.103788 0.721662 0.000000
0.137227 0.720583 0.000000
0.170582 0.719511 0.000000
0.203848 0.718447 0.000000
0.237016 0.717394 0.000000
0.270083 0.716355 0.000000
0.303041 0.715329 0.000000
0.335885 0.714319 0.000000
0.368613 0.713327 0.000000
0.401219 0.712353 0.000000
0.433701 0.711398 0.000000
0.466056 0.710463 0.000000
0.498283 0.709548 0.000000
0.530379 0.708655 0.000000
0.562344 0.707783 0.000000
0.594178 0.706932 0.000000
0.625880 0.706103 0.000000
0.657451 0.705295 0.000000
0.688891 0.704509 0.000000
0.720203 0.703743 0.000000
0.751386 0.702998 0.000000
0.782444 0.702272 0.000000
0.813379 0.701565 0.000000
0.844192 0.700877 0.000000
0.874886 0.700206 0.000000
0.905463 0.699551 0.000000
0.935928 0.698913 0.000000
0.966281 0.698288 0.000000
0.996527 0.697678 0.000000
0.000000 0.755799 0.000000
0.004130 0.754653 0.000000
0.037760 0.753510 0.000000
0.071312 0.752372 0.000000
0.104777 0.751243 0.000000
0.138148 0.750123 0.000000
0.171420 0.749015 0.000000
0.204586 0.747921 0.000000
0.237641 0.746842 0.000000
0.270580 0.745780 0.000000
0.303400 0.744736 0.000000
0.336096 0.743710 0.000000
0.368665 0.742705 0.000000
0.401106 0.741720 0.000000
0.433417 0.740756 0.000000
0.465596 0.739813 0.000000
0.497643 0.738893 0.000000
0.529557 0.737994 0.000000
0.561339 0.737117 0.000000
0.592988 0.736261 0.000000
0.624507 0.735427 0.000000
0.655896 0.734614 0.000000
0.687158 0.733821 0.000000
0.718293 0.733048 0.000000
0.749304 0.732294 0.000000
0.780193 0.731558 0.000000
0.810963 0.730839 0.000000
0.841617 0.730137 0.000000
0.872156 0.729451 0.000000
0.902585 0.728779 0.000000
0.932906 0.728120 0.000000
0.963121 0.727474 0.000000
0.993234 0.726840 0.000000
0.000000 0.785203 0.000000
0.005807 0.784006 0.000000
0.039385 0.782818 0.000000
0.072866 0.781641 0.000000
0.106243 0.780477 0.000000
0.139511 0.779329 0.000000
0.172664 0.778196 0.000000
0.205698 0.777081 0.000000
0.238609 0.775985 0.000000
0.271394 0.774908 0.000000
0.304051 0.773852 0.000000
0.336577 0.772818 0.000000
0.368970 0.771805 0.000000
0.401230 0.770814 0.000000
0.433356 0.769846 0.000000
0.465347 0.768900 0.000000
0.497206 0.767976 0.000000
0.528931 0.767073 0.000000
0.560524 0.766193 0.000000
0.591987 0.765333 0.000000
0.623321 0.764494 0.000000
0.654528 0.763675 0.000000
0.685611 0.762874 0.000000
0.716572 0.762092 0.000000
0.747413 0.761328 0.000000
0.778137 0.760580 0.000000
0.808746 0.759847 0.000000
0.839244 0.759128 0.000000
0.869634 0.758423 0.000000
0.899918 0.757731 0.000000
0.930098 0.757049 0.000000
0.960178 0.756378 0.000000
0.990161 0.755716 0.000000
0.000000 0.814232 0.000000
0.008013 0.812998 0.000000
0.041495 0.811778 0.000000
0.074864 0.810575 0.000000
0.108115 0.809388 0.000000
0.141243 0.808221 0.000000
0.174245 0.807073 0.000000
0.207117 0.805947 0.000000
0.239858 0.804841 0.000000
0.272466 0.803758 0.000000
0.304938 0.802697 0.000000
0.337276 0.801659 0.000000
0.369477 0.800644 0.000000
0.401542 0.799652 0.000000
0.433473 0.798682 0.000000
0.465269 0.797734 0.000000
0.496932 0.796808 0.000000
0.528463 0.795904 0.000000
0.559865 0.795020 0.000000
0.591139 0.794156 0.000000
0.622288 0.793311 0.000000
0.653315 0.792484 0.000000
0.684220 0.791675 0.000000
0.715009 0.790882 0.000000
0.745682 0.790104 0.000000
0.776243 0.789341 0.000000
0.806696 0.788591 0.000000
0.837041 0.787853 0.000000
