assets/Mature.cube
TITLE "ProPhoto Linear Mature: HueRot+MidSat+Split"
LUT_3D_SIZE 9
0.000000 0.000000 0.011000
0.110614 0.001140 0.012263
0.234912 0.001550 0.012837
0.362094 0.001175 0.012672
0.492393 0.000000 0.011702
0.626066 0.000000 0.009861
0.758483 0.000000 0.008328
0.891026 0.000000 0.006743
1.000000 0.000000 0.004680
0.000000 0.124099 0.007361
0.121886 0.124276 0.006012
0.250350 0.123694 0.003908
0.379708 0.122750 0.002580
0.510351 0.121447 0.000794
0.642374 0.119721 0.000000
0.774747 0.117539 0.000000
0.908636 0.114905 0.000000
1.000000 0.111867 0.000000
0.000000 0.250851 0.000000
0.125383 0.250086 0.000000
0.254826 0.248992 0.000000
0.384882 0.247504 0.000000
0.516336 0.245592 0.000000
0.649074 0.243269 0.000000
0.782812 0.240593 0.000000
0.917103 0.237665 0.000000
1.000000 0.234625 0.000000
0.000000 0.378639 0.000000
0.120287 0.377394 0.000000
0.250844 0.375706 0.000000
0.382606 0.373592 0.000000
0.515250 0.371116 0.000000
0.648304 0.368384 0.000000
0.781195 0.365531 0.000000
0.913303 0.362709 0.000000
1.000000 0.360066 0.000000
0.000000 0.507428 0.000000
0.111025 0.505257 0.000000
0.243413 0.502666 0.000000
0.376205 0.499772 0.000000
0.508818 0.496718 0.000000
0.640655 0.493654 0.000000
0.771171 0.490723 0.000000
0.899923 0.488042 0.000000
1.000000 0.485695 0.000000
0.000000 0.634242 0.000000
0.104066 0.630775 0.000000
0.237570 0.627120 0.000000
0.370268 0.623438 0.000000
0.501638 0.619874 0.000000
0.631281 0.616539 0.000000
0.758942 0.613510 0.000000
0.884511 0.610819 0.000000
1.000000 0.608463 0.000000
0.000000 0.755799 0.000000
0.104777 0.751243 0.000000
0.237641 0.746842 0.000000
0.368665 0.742705 0.000000
0.497643 0.738893 0.000000
0.624507 0.735427 0.000000
0.749304 0.732294 0.000000
0.872156 0.729451 0.000000
0.993234 0.726840 0.000000
0.000000 0.871287 0.000000
0.112722 0.866347 0.000000
0.242911 0.861786 0.000000
0.370871 0.857603 0.000000
0.496695 0.853766 0.000000
0.620530 0.850220 0.000000
0.742553 0.846898 0.000000
0.862937 0.843729 0.000312
0.981837 0.840645 0.003909
0.000000 0.982352 0.000000
0.122839 0.977563 0.000000
0.249279 0.973126 0.000000
0.373694 0.968969 0.000000
0.496275 0.965017 0.000000
0.617197 0.961192 0.000134
0.737122 0.956983 0.006739
0.855899 0.953498 0.013350
0.972505 0.950182 0.019788
0.000000 0.002629 0.108138
0.105556 0.003897 0.125723
0.229032 0.004143 0.130336
0.356052 0.003551 0.132781
0.486433 0.002074 0.134018
0.619942 0.000000 0.134260
0.750982 0.000000 0.133951
0.883697 0.000000 0.133216
1.000000 0.000000 0.132102
0.000000 0.124514 0.129104
0.120229 0.124980 0.129731
0.247389 0.124586 0.129547
0.375985 0.123785 0.128979
0.506130 0.122539 0.127992
0.637365 0.120816 0.127109
0.769484 0.118607 0.126537
0.903132 0.115937 0.125527
1.000000 0.112874 0.124145
0.000000 0.250787 0.123850
0.124005 0.250259 0.122619
0.252205 0.249305 0.121975
0.381659 0.247894 0.121169
0.512621 0.246023 0.119951
0.644906 0.243728 0.118402
0.778173 0.241087 0.116643
0.911930 0.238219 0.114835
1.000000 0.235276 0.113158
0.000000 0.378388 0.115677
0.118300 0.377244 0.114267
0.248291 0.375619 0.112573
0.379542 0.373556 0.110732
0.511674 0.371138 0.108915
0.644175 0.368486 0.107308
0.776449 0.365746 0.106095
0.907872 0.363072 0.105441
1.000000 0.360611 0.105467
0.000000 0.506846 0.104777
0.109146 0.504720 0.102985
0.241083 0.502184 0.101481
0.373388 0.499371 0.100446
0.505458 0.496430 0.100031
0.636695 0.493513 0.100340
0.766570 0.490757 0.101423
0.894663 0.488272 0.103270
1.000000 0.486128 0.105816
0.000000 0.633184 0.094864
0.102917 0.629796 0.094710
0.235948 0.626258 0.095316
0.368106 0.622728 0.096708
0.498889 0.619342 0.098854
0.627923 0.616204 0.101667
0.754982 0.613376 0.105021
0.879982 0.610879 0.108764
1.000000 0.608700 0.112735
0.000000 0.754320 0.092105
0.104594 0.749935 0.094542
0.236854 0.745734 0.097609
0.367245 0.741809 0.101167
0.495592 0.738210 0.105055
0.621852 0.734947 0.109113
0.746089 0.731996 0.113190
0.868435 0.729310 0.117157
0.989061 0.726827 0.120915
0.000000 0.869637 0.097378
0.113102 0.864936 0.101391
0.242582 0.860606 0.105515
0.369866 0.856638 0.109606
0.495060 0.852991 0.113545
0.618321 0.849606 0.117244
0.739824 0.846415 0.120644
0.859737 0.843348 0.123716
0.978203 0.840339 0.126453
0.000000 0.980743 0.106023
0.123207 0.976178 0.109921
0.248952 0.971933 0.113550
0.372734 0.967936 0.116864
0.494742 0.964111 0.119842
0.615407 0.960215 0.123368
0.735187 0.956311 0.128917
0.853414 0.952947 0.134321
0.969497 0.949730 0.139600
0.000000 0.005197 0.206109
0.103229 0.006437 0.233283
0.225209 0.006550 0.243611
0.351614 0.005759 0.249820
0.481777 0.004041 0.254048
0.613544 0.002017 0.256455
0.744539 0.000346 0.257441
0.877292 0.000000 0.257909
1.000000 0.000000 0.258397
0.000000 0.125253 0.247916
0.118780 0.125839 0.251275
0.244846 0.125603 0.252695
0.372721 0.124887 0.253322
0.502372 0.123663 0.253471
0.632803 0.121921 0.254140
0.764635 0.119673 0.254638
0.898000 0.116964 0.254654
1.000000 0.113882 0.254229
0.000000 0.250935 0.249005
0.122529 0.250575 0.249015
0.249717 0.249717 0.249717
0.378605 0.248353 0.249939
0.509088 0.246504 0.249703
0.640919 0.244228 0.249061
0.773702 0.241622 0.248104
0.906905 0.238821 0.246960
1.000000 0.235983 0.245777
0.000000 0.378264 0.245094
0.116339 0.377188 0.244621
0.245804 0.375608 0.243782
0.376567 0.373586 0.242683
0.508198 0.371224 0.241459
0.640150 0.368655 0.240268
0.771808 0.366034 0.239272
0.902549 0.363514 0.238619
1.000000 0.361240 0.238432
0.000000 0.506347 0.237190
0.107338 0.504257 0.235917
0.238845 0.501776 0.234750
0.370675 0.499046 0.233846
0.502210 0.496223 0.233346
0.632856 0.493458 0.233357
0.762098 0.490880 0.233938
0.889547 0.488590 0.235101
1.000000 0.486646 0.236812
0.000000 0.632205 0.228454
0.101885 0.628901 0.228130
0.234445 0.625485 0.228354
0.366066 0.622111 0.229168
0.496265 0.618907 0.230564
0.624697 0.615964 0.232488
0.751164 0.613332 0.234850
0.875607 0.611021 0.237534
0.998080 0.609009 0.240416
0.000000 0.752941 0.224482
0.104509 0.748733 0.226109
0.236160 0.744732 0.228238
0.365918 0.741016 0.230768
0.493638 0.737624 0.233576
0.619301 0.734554 0.236535
0.742986 0.731775 0.239524
0.864834 0.729234 0.242439
0.985014 0.726868 0.245197
0.000000 0.868107 0.226740
0.113515 0.863639 0.229655
0.242289 0.859533 0.232675
0.368903 0.855768 0.235683
0.493477 0.852299 0.238581
0.616172 0.849062 0.241294
0.737162 0.845989 0.243772
0.856609 0.843012 0.245985
0.974476 0.840052 0.248586
0.000000 0.979247 0.231843
0.123560 0.974891 0.234713
0.248623 0.970825 0.237374
0.371786 0.966974 0.239784
0.493231 0.963263 0.241922
0.613727 0.959275 0.245412
0.733316 0.955701 0.249756
0.850998 0.952448 0.254003
0.966561 0.949322 0.258167
0.000000 0.007704 0.304931
0.102075 0.008844 0.338715
0.222625 0.008814 0.354656
0.348286 0.007824 0.364998
0.478098 0.005866 0.372604
0.608125 0.004184 0.376678
0.738968 0.002389 0.379260
0.871663 0.000083 0.381180
1.000000 0.000000 0.383469
0.000000 0.126206 0.364888
0.117496 0.126821 0.371104
0.242632 0.126714 0.373920
0.369833 0.126038 0.376040
0.498872 0.124807 0.377696
0.628618 0.123030 0.379976
0.760138 0.120735 0.381684
0.893185 0.117987 0.382818
1.000000 0.114892 0.383399
0.000000 0.251256 0.372583
0.120813 0.251009 0.374354
0.247337 0.250208 0.376290
0.375694 0.248867 0.377669
0.505711 0.247028 0.378494
0.637086 0.244767 0.378795
0.769374 0.242199 0.378634
0.902006 0.239470 0.378112
1.000000 0.236749 0.377356
0.000000 0.378247 0.373482
0.114402 0.377215 0.374013
0.243380 0.375664 0.374052
0.373677 0.373677 0.373677
0.504816 0.371370 0.372996
0.636222 0.368890 0.372147
0.767267 0.366394 0.371278
0.897331 0.364036 0.370533
1.000000 0.361953 0.370041
0.000000 0.505924 0.368617
0.105606 0.503864 0.367807
0.236702 0.501438 0.366896
0.368068 0.498796 0.366032
0.499075 0.496097 0.365354
0.629135 0.493488 0.364980
0.757756 0.491092 0.364988
0.884575 0.488995 0.365418
1.000000 0.487245 0.366267
0.000000 0.631303 0.360785
0.100971 0.628089 0.360200
0.233061 0.624800 0.359962
0.364145 0.621586 0.360135
0.493764 0.618565 0.360741
0.621601 0.615815 0.361759
0.747486 0.613373 0.363135
0.871383 0.611240 0.364790
0.993363 0.609385 0.366630
0.000000 0.751663 0.355342
0.104515 0.747636 0.356125
0.235552 0.743834 0.357309
0.364678 0.740325 0.358827
0.491775 0.737132 0.360591
0.616847 0.734246 0.362505
0.739988 0.731626 0.364472
0.861345 0.729219 0.366406
0.981085 0.726958 0.368236
0.000000 0.866693 0.354565
0.113955 0.862452 0.356426
0.242027 0.858560 0.358400
0.367979 0.854988 0.360393
0.491941 0.851684 0.362323
0.614079 0.848582 0.364124
0.734563 0.845616 0.365749
0.853549 0.842718 0.367169
0.970796 0.839814 0.369600
0.000000 0.977858 0.356318
0.123896 0.973698 0.358234
0.248290 0.969796 0.359999
0.370845 0.966077 0.361574
0.491739 0.962468 0.362934
0.612204 0.958454 0.366102
0.731506 0.955148 0.369295
0.848647 0.951997 0.372433
0.963693 0.948954 0.375519
0.000000 0.010148 0.404623
0.101506 0.011146 0.443455
0.220829 0.010956 0.464574
0.345750 0.009760 0.479106
0.474828 0.007691 0.489928
0.603498 0.006265 0.495395
0.734122 0.004346 0.499774
0.866593 0.001901 0.503415
0.999719 0.000000 0.507546
0.000000 0.127301 0.480757
0.116403 0.127945 0.488937
0.240680 0.127893 0.493661
0.367253 0.127224 0.497478
0.495375 0.125963 0.501129
0.624752 0.124137 0.504832
0.755941 0.121791 0.507841
0.888639 0.119007 0.510144
1.000000 0.115909 0.511742
0.000000 0.251717 0.494906
0.119129 0.251539 0.498601
0.245046 0.250765 0.501895
0.372902 0.249428 0.504511
0.502468 0.247589 0.506438
0.633386 0.245342 0.507682
0.765169 0.242817 0.508283
0.897217 0.240170 0.508320
1.000000 0.237577 0.507905
0.000000 0.378322 0.500981
0.112489 0.377312 0.502545
0.241015 0.375780 0.503452
0.370865 0.373825 0.503756
0.501524 0.371577 0.503548
0.632388 0.369191 0.502952
0.762822 0.366828 0.502111
0.892214 0.364638 0.501178
1.000000 0.362749 0.500293
0.000000 0.505569 0.499094
0.103953 0.503537 0.498669
0.234656 0.501169 0.497922
0.365567 0.498621 0.497000
0.496051 0.496051 0.496051
0.625534 0.493603 0.495210
0.753544 0.491389 0.494583
0.879746 0.489484 0.494238
1.000000 0.487923 0.494209
0.000000 0.630476 0.491856
0.100174 0.627358 0.490920
0.231793 0.624204 0.490145
0.362341 0.621154 0.489622
0.491382 0.618316 0.489405
0.618630 0.615755 0.489511
0.743942 0.613497 0.489918
0.867305 0.611533 0.490580
0.988803 0.609823 0.491431
0.000000 0.750485 0.484700
0.104607 0.746641 0.484618
0.235025 0.743038 0.484859
0.363518 0.739730 0.485390
0.489997 0.736729 0.486153
0.614485 0.734016 0.487079
0.737090 0.731545 0.488090
0.857962 0.729259 0.489114
0.977266 0.727093 0.490087
0.000000 0.865392 0.480901
0.114415 0.861371 0.481758
0.241790 0.857683 0.482748
0.367087 0.854292 0.483795
0.490446 0.851140 0.484828
0.612036 0.848162 0.485787
0.732022 0.845291 0.486626
0.850551 0.842463 0.487311
0.967287 0.839666 0.489286
0.000000 0.976569 0.479506
0.124212 0.972592 0.480539
0.247950 0.968841 0.481478
0.369910 0.965242 0.482281
0.490713 0.961543 0.483379
0.611018 0.957839 0.485482
0.729754 0.954648 0.487573
0.846358 0.951591 0.489643
0.960889 0.948624 0.491686
0.000000 0.012528 0.505205
0.101249 0.013357 0.548176
0.219555 0.012989 0.574031
0.343791 0.011577 0.592683
0.471258 0.009797 0.605328
0.599520 0.008267 0.612970
0.729882 0.006221 0.619274
0.861726 0.003641 0.625104
0.994700 0.000544 0.630815
0.000000 0.128485 0.596043
0.115432 0.129160 0.605491
0.238937 0.129123 0.612264
0.364927 0.128431 0.617911
0.492150 0.127124 0.623672
0.621157 0.125239 0.628881
0.751999 0.122840 0.633243
0.884318 0.120026 0.636731
1.000000 0.116936 0.639326
0.000000 0.252290 0.616424
0.117468 0.252146 0.621965
0.242828 0.251375 0.626694
0.370213 0.250029 0.630590
0.499339 0.248185 0.633623
0.629801 0.245953 0.635780
0.761070 0.243477 0.637083
0.892523 0.240924 0.637596
1.000000 0.238469 0.637424
0.000000 0.378473 0.627704
0.110603 0.377472 0.630295
0.238709 0.375951 0.632031
0.368131 0.374027 0.632947
0.498317 0.371843 0.633124
0.628644 0.369559 0.632680
0.758471 0.367336 0.631765
0.887200 0.365320 0.630546
1.000000 0.363628 0.629187
0.000000 0.505277 0.628641
0.102387 0.503274 0.628510
0.232710 0.500968 0.627825
0.363172 0.498520 0.626744
0.493140 0.496086 0.625433
0.622052 0.493802 0.624050
0.749460 0.491771 0.622732
0.875061 0.490054 0.621584
0.998699 0.488675 0.620672
0.000000 0.629725 0.621660
0.099494 0.626710 0.620287
0.230640 0.623695 0.618907
0.360650 0.620812 0.617643
0.489116 0.618156 0.616584
0.615781 0.615781 0.615781
0.740528 0.613700 0.615245
0.863367 0.611894 0.614957
0.984394 0.610318 0.614876
0.000000 0.749406 0.612576
0.104776 0.745747 0.611618
0.234572 0.742341 0.610928
0.362433 0.739228 0.610504
0.488297 0.736411 0.610316
0.612209 0.733860 0.610314
0.734285 0.731527 0.610437
0.854679 0.729351 0.610620
0.973552 0.727268 0.610803
0.000000 0.864201 0.605800
0.114888 0.860392 0.605706
0.241572 0.856898 0.605775
0.366223 0.853675 0.605945
0.488989 0.850663 0.606151
0.610038 0.847797 0.606335
0.729533 0.845010 0.606448
0.847585 0.842222 0.606722
0.964186 0.839723 0.607688
0.000000 0.975375 0.601463
0.124505 0.971567 0.601683
0.247602 0.967954 0.601861
0.368980 0.964462 0.601952
0.489784 0.960663 0.602581
0.609880 0.957283 0.603592
0.728055 0.954198 0.604626
0.844127 0.951227 0.605664
0.958146 0.948328 0.606694
0.000000 0.014841 0.606701
0.101161 0.015481 0.653246
0.218633 0.014919 0.683457
0.342258 0.013280 0.706117
0.468232 0.011833 0.719806
0.596076 0.010192 0.729687
0.726150 0.008019 0.737997
0.857330 0.005307 0.746087
0.990104 0.002088 0.753429
0.000000 0.129742 0.710299
0.114550 0.130442 0.721099
0.237361 0.130386 0.730004
0.362656 0.129651 0.737720
0.489154 0.128283 0.745505
0.617790 0.126334 0.752267
0.748270 0.123884 0.757996
0.880188 0.121048 0.762652
1.000000 0.117978 0.766197
0.000000 0.252955 0.737426
0.115821 0.252815 0.744617
0.240670 0.252029 0.750818
0.367610 0.250663 0.756000
0.496309 0.248812 0.760113
0.626315 0.246600 0.763129
0.757065 0.244182 0.765053
0.887913 0.241732 0.765944
1.000000 0.239427 0.765908
0.000000 0.378691 0.753738
0.108745 0.377686 0.757320
0.236460 0.376174 0.759821
0.365471 0.374284 0.761264
0.495194 0.372170 0.761723
0.624988 0.369995 0.761324
0.754214 0.367919 0.760231
0.882288 0.366081 0.758633
1.000000 0.364588 0.756723
0.000000 0.505045 0.757268
0.100910 0.503074 0.757326
0.230865 0.500835 0.756597
0.360885 0.498493 0.755256
0.490341 0.496201 0.753495
0.618688 0.494084 0.751502
0.745505 0.492235 0.749450
0.870518 0.490703 0.747479
0.993599 0.489498 0.745689
0.000000 0.629048 0.750190
0.098928 0.626144 0.748300
0.229598 0.623274 0.746256
0.359069 0.620560 0.744216
0.486962 0.618084 0.742305
0.613048 0.615889 0.740606
0.737240 0.613976 0.739160
0.859565 0.612319 0.737972
0.980129 0.610867 0.737018
0.000000 0.748425 0.738991
0.105017 0.744952 0.737156
0.234186 0.741740 0.735557
0.361416 0.738816 0.734218
0.486671 0.736172 0.733133
0.610013 0.733774 0.732266
0.731567 0.731567 0.731567
0.851489 0.729490 0.730976
0.969935 0.727480 0.730434
0.000000 0.863116 0.729312
0.115370 0.859510 0.728325
0.241369 0.856198 0.727539
0.365382 0.853131 0.726899
0.487564 0.850248 0.726345
0.608083 0.847482 0.725816
0.727093 0.844768 0.725261
0.844696 0.842029 0.724932
0.961171 0.839826 0.724845
0.000467 0.974270 0.722245
0.124774 0.970619 0.721718
0.247243 0.967130 0.721195
0.368051 0.963733 0.720627
0.489016 0.959911 0.720504
0.608787 0.956783 0.720470
0.726408 0.953795 0.720485
0.841951 0.950901 0.720524
0.955460 0.948065 0.720568
0.000000 0.017087 0.709132
0.101158 0.017522 0.758888
0.217950 0.016751 0.793146
0.340797 0.015027 0.818885
0.465646 0.013802 0.833628
0.593075 0.012046 0.845777
0.722726 0.009745 0.856255
0.853335 0.006905 0.866519
0.985869 0.003574 0.875510
0.000000 0.131095 0.822801
0.113732 0.131771 0.836022
0.235918 0.131672 0.847100
0.360262 0.130875 0.857226
0.486348 0.129436 0.866775
0.614615 0.127421 0.875101
0.744722 0.124924 0.882182
0.876215 0.122075 0.887962
1.000000 0.119040 0.892386
0.000000 0.253693 0.857821
0.114181 0.253535 0.866692
0.238561 0.252719 0.874372
0.365083 0.251328 0.880815
0.493364 0.249469 0.885957
0.622915 0.247283 0.889752
0.753140 0.244934 0.892200
0.883377 0.242599 0.893358
1.000000 0.240455 0.893344
0.000000 0.378967 0.879146
0.106920 0.377950 0.883660
0.234271 0.376445 0.886841
0.362885 0.374594 0.888708
0.492152 0.372556 0.889338
0.621419 0.370499 0.888872
0.750050 0.368578 0.887496
0.877478 0.366923 0.885430
1.000000 0.365628 0.882903
0.000000 0.504869 0.884972
0.099529 0.502934 0.885107
0.229123 0.500770 0.884225
0.358705 0.498542 0.882527
0.487654 0.496396 0.880234
0.615442 0.494449 0.877574
0.741678 0.492780 0.874755
0.866116 0.491427 0.871952
0.988656 0.490388 0.869298
0.000000 0.628447 0.877440
0.098476 0.625660 0.874961
0.228664 0.622939 0.872203
0.357593 0.620394 0.869364
0.484914 0.618097 0.866602
0.610428 0.616075 0.864029
0.734073 0.614323 0.861713
0.855892 0.612803 0.859678
0.976002 0.611464 0.857912
0.000000 0.747542 0.863973
0.105322 0.744255 0.861270
0.233861 0.741232 0.858790
0.360462 0.738489 0.856583
0.485112 0.736010 0.854657
0.607891 0.733752 0.852990
0.728930 0.731660 0.851535
0.848386 0.729672 0.850235
0.966408 0.727725 0.849027
0.000000 0.862132 0.851489
0.115854 0.858720 0.849670
0.241176 0.855579 0.848094
0.364561 0.852657 0.846711
0.486169 0.849890 0.845459
0.606165 0.847213 0.844276
0.724698 0.844563 0.843103
0.841982 0.841935 0.841887
0.958238 0.839970 0.840791
0.001387 0.973250 0.841903
0.125018 0.969740 0.840691
0.246873 0.966364 0.839524
0.367777 0.962858 0.838331
0.488548 0.959352 0.837186
0.607737 0.956333 0.836149
0.724809 0.953434 0.835180
0.839828 0.950612 0.834249
0.952829 0.947831 0.833330
0.000000 0.019263 0.812525
0.101187 0.019480 0.865249
0.217427 0.018485 0.903312
0.339108 0.017030 0.929775
0.463419 0.015706 0.947004
0.590445 0.013832 0.961421
0.719335 0.011402 0.974409
0.849678 0.008439 0.986525
0.981936 0.005007 0.997153
0.000000 0.132507 0.934842
0.112958 0.133132 0.950467
0.234580 0.132970 0.963731
0.358010 0.132098 0.976284
0.483701 0.130581 0.987599
0.611602 0.128499 0.997472
0.741325 0.125961 1.000000
0.872373 0.123112 1.000000
1.000000 0.120127 1.000000
0.000000 0.254490 0.977749
0.112543 0.254294 0.988301
0.236495 0.253439 0.997435
0.362619 0.252019 1.000000
0.490495 0.250157 1.000000
0.619591 0.248005 1.000000
0.749287 0.245734 1.000000
0.878909 0.243527 1.000000
1.000000 0.241554 1.000000
0.000000 0.379291 1.000000
0.105132 0.378259 1.000000
0.232142 0.376763 1.000000
0.360374 0.374957 1.000000
0.489192 0.373005 1.000000
0.617937 0.371073 1.000000
0.745978 0.369313 1.000000
0.872772 0.367844 1.000000
0.997902 0.366747 1.000000
0.000000 0.504748 1.000000
0.098246 0.502855 1.000000
0.227487 0.500773 1.000000
0.356634 0.498665 1.000000
0.485078 0.496670 1.000000
0.612314 0.494894 1.000000
0.737977 0.493403 0.998666
0.861853 0.492223 0.995034
0.983868 0.491341 0.991540
0.000000 0.627921 1.000000
0.098133 0.625257 1.000000
0.227834 0.622689 0.996763
0.356219 0.620315 0.993111
0.482969 0.618192 0.989507
0.607916 0.616337 0.986092
0.731021 0.614735 0.982953
0.852343 0.613343 0.980128
0.972007 0.612105 0.977613
0.000000 0.746754 0.987549
0.105683 0.743651 0.983996
0.233589 0.740813 0.980674
0.359563 0.738244 0.977649
0.483615 0.735919 0.974943
0.605837 0.733791 0.972539
0.726369 0.731803 0.970392
0.845364 0.729892 0.968444
0.962967 0.727999 0.966627
0.000000 0.861246 0.972384
0.116336 0.858017 0.969795
0.240988 0.855037 0.967494
0.363756 0.852247 0.965431
0.484800 0.849585 0.963542
0.604282 0.846985 0.961758
0.722481 0.844367 0.959839
0.839635 0.842033 0.957627
0.955383 0.840153 0.955562
0.002266 0.972307 0.960489
0.125236 0.968928 0.958649
0.246490 0.965651 0.956889
0.367566 0.962038 0.954796
0.488112 0.958850 0.952665
0.606727 0.955932 0.950661
0.723257 0.953113 0.948740
0.837755 0.950355 0.946863
0.950250 0.947625 0.945000
